(Exported by FreeCAD)
(Post Processor: grbl_post)
(Output Time:2021-05-28 23:45:11.625846)
(Begin preamble)
G17 G90
G21
(Begin operation: TC: HSS_0_8mm)
(Path: TC: HSS_0_8mm)
(TC: HSS_0_8mm)
(Begin toolchange)
( M6 T2.0 )
M3 S0.0
(Finish operation: TC: HSS_0_8mm)
(Begin operation: Fixture)
(Path: Fixture)
G54
G0 Z5.000
(Finish operation: Fixture)
(Begin operation: 0_8mm Profile Holes)
(Path: 0_8mm Profile Holes)
(0_8mm Profile Holes)
(Compensated Tool Path. Diameter: 0.8)
G0 Z5.000
G0 X50.164 Y-24.036
G0 Z3.000
G1 X50.164 Y-24.036 Z0.000
G3 X49.147 Y-23.944 Z0.000 I-0.564 J-0.564 K0.000
G3 X50.053 Y-25.256 Z0.000 I0.453 J-0.656 K-0.000
G3 X50.164 Y-24.036 Z0.000 I-0.453 J0.656 K0.000
G1 X50.164 Y-24.036 Z-0.200
G3 X49.147 Y-23.944 Z-0.200 I-0.564 J-0.564 K0.000
G3 X50.053 Y-25.256 Z-0.200 I0.453 J-0.656 K0.000
G3 X50.164 Y-24.036 Z-0.200 I-0.453 J0.656 K0.000
G1 X50.164 Y-24.036 Z-0.400
G3 X49.147 Y-23.944 Z-0.400 I-0.564 J-0.564 K0.000
G3 X50.053 Y-25.256 Z-0.400 I0.453 J-0.656 K0.000
G3 X50.164 Y-24.036 Z-0.400 I-0.453 J0.656 K0.000
G1 X50.164 Y-24.036 Z-0.600
G3 X49.147 Y-23.944 Z-0.600 I-0.564 J-0.564 K0.000
G3 X50.053 Y-25.256 Z-0.600 I0.453 J-0.656 K0.000
G3 X50.164 Y-24.036 Z-0.600 I-0.453 J0.656 K0.000
G1 X50.164 Y-24.036 Z-0.800
G3 X49.147 Y-23.944 Z-0.800 I-0.564 J-0.564 K0.000
G3 X50.053 Y-25.256 Z-0.800 I0.453 J-0.656 K0.000
G3 X50.164 Y-24.036 Z-0.800 I-0.453 J0.656 K0.000
G1 X50.164 Y-24.036 Z-1.000
G3 X49.147 Y-23.944 Z-1.000 I-0.564 J-0.564 K0.000
G3 X50.053 Y-25.256 Z-1.000 I0.453 J-0.656 K0.000
G3 X50.164 Y-24.036 Z-1.000 I-0.453 J0.656 K0.000
G1 X50.164 Y-24.036 Z-1.200
G3 X49.147 Y-23.944 Z-1.200 I-0.564 J-0.564 K0.000
G3 X50.053 Y-25.256 Z-1.200 I0.453 J-0.656 K0.000
G3 X50.164 Y-24.036 Z-1.200 I-0.453 J0.656 K0.000
G1 X50.164 Y-24.036 Z-1.400
G3 X49.147 Y-23.944 Z-1.400 I-0.564 J-0.564 K0.000
G3 X50.053 Y-25.256 Z-1.400 I0.453 J-0.656 K0.000
G3 X50.164 Y-24.036 Z-1.400 I-0.453 J0.656 K0.000
G1 X50.164 Y-24.036 Z-1.600
G3 X49.147 Y-23.944 Z-1.600 I-0.564 J-0.564 K0.000
G3 X50.053 Y-25.256 Z-1.600 I0.453 J-0.656 K0.000
G3 X50.164 Y-24.036 Z-1.600 I-0.453 J0.656 K0.000
G1 X50.164 Y-24.036 Z-1.800
G3 X49.147 Y-23.944 Z-1.800 I-0.564 J-0.564 K0.000
G3 X50.053 Y-25.256 Z-1.800 I0.453 J-0.656 K0.000
G3 X50.164 Y-24.036 Z-1.800 I-0.453 J0.656 K0.000
G1 X50.164 Y-24.036 Z-2.000
G3 X49.147 Y-23.944 Z-2.000 I-0.564 J-0.564 K0.000
G3 X50.053 Y-25.256 Z-2.000 I0.453 J-0.656 K0.000
G3 X50.164 Y-24.036 Z-2.000 I-0.453 J0.656 K0.000
G1 X50.164 Y-24.036 Z-2.200
G3 X49.147 Y-23.944 Z-2.200 I-0.564 J-0.564 K0.000
G3 X50.053 Y-25.256 Z-2.200 I0.453 J-0.656 K0.000
G3 X50.164 Y-24.036 Z-2.200 I-0.453 J0.656 K0.000
G1 X50.164 Y-24.036 Z-2.400
G3 X49.147 Y-23.944 Z-2.400 I-0.564 J-0.564 K0.000
G3 X50.053 Y-25.256 Z-2.400 I0.453 J-0.656 K0.000
G3 X50.164 Y-24.036 Z-2.400 I-0.453 J0.656 K0.000
G0 Z5.000
G0 Z5.000
G0 X50.164 Y-24.036
G0 X49.612 Y-61.803
G0 X49.612 Y-61.803 Z3.000
G1 X49.612 Y-61.803 Z0.000
G3 X48.894 Y-62.970 Z0.000 I-0.012 J-0.797 K0.000
G3 X50.306 Y-62.230 Z0.000 I0.706 J0.370 K0.000
G3 X49.612 Y-61.803 Z0.000 I-0.706 J-0.370 K0.000
G1 X49.612 Y-61.803 Z-0.200
G3 X48.894 Y-62.970 Z-0.200 I-0.012 J-0.797 K0.000
G3 X50.306 Y-62.230 Z-0.200 I0.706 J0.370 K0.000
G3 X49.612 Y-61.803 Z-0.200 I-0.706 J-0.370 K0.000
G1 X49.612 Y-61.803 Z-0.400
G3 X48.894 Y-62.970 Z-0.400 I-0.012 J-0.797 K0.000
G3 X50.306 Y-62.230 Z-0.400 I0.706 J0.370 K0.000
G3 X49.612 Y-61.803 Z-0.400 I-0.706 J-0.370 K0.000
G1 X49.612 Y-61.803 Z-0.600
G3 X48.894 Y-62.970 Z-0.600 I-0.012 J-0.797 K0.000
G3 X50.306 Y-62.230 Z-0.600 I0.706 J0.370 K0.000
G3 X49.612 Y-61.803 Z-0.600 I-0.706 J-0.370 K0.000
G1 X49.612 Y-61.803 Z-0.800
G3 X48.894 Y-62.970 Z-0.800 I-0.012 J-0.797 K0.000
G3 X50.306 Y-62.230 Z-0.800 I0.706 J0.370 K0.000
G3 X49.612 Y-61.803 Z-0.800 I-0.706 J-0.370 K0.000
G1 X49.612 Y-61.803 Z-1.000
G3 X48.894 Y-62.970 Z-1.000 I-0.012 J-0.797 K0.000
G3 X50.306 Y-62.230 Z-1.000 I0.706 J0.370 K0.000
G3 X49.612 Y-61.803 Z-1.000 I-0.706 J-0.370 K0.000
G1 X49.612 Y-61.803 Z-1.200
G3 X48.894 Y-62.970 Z-1.200 I-0.012 J-0.797 K0.000
G3 X50.306 Y-62.230 Z-1.200 I0.706 J0.370 K0.000
G3 X49.612 Y-61.803 Z-1.200 I-0.706 J-0.370 K0.000
G1 X49.612 Y-61.803 Z-1.400
G3 X48.894 Y-62.970 Z-1.400 I-0.012 J-0.797 K0.000
G3 X50.306 Y-62.230 Z-1.400 I0.706 J0.370 K0.000
G3 X49.612 Y-61.803 Z-1.400 I-0.706 J-0.370 K0.000
G1 X49.612 Y-61.803 Z-1.600
G3 X48.894 Y-62.970 Z-1.600 I-0.012 J-0.797 K0.000
G3 X50.306 Y-62.230 Z-1.600 I0.706 J0.370 K0.000
G3 X49.612 Y-61.803 Z-1.600 I-0.706 J-0.370 K0.000
G1 X49.612 Y-61.803 Z-1.800
G3 X48.894 Y-62.970 Z-1.800 I-0.012 J-0.797 K0.000
G3 X50.306 Y-62.230 Z-1.800 I0.706 J0.370 K0.000
G3 X49.612 Y-61.803 Z-1.800 I-0.706 J-0.370 K0.000
G1 X49.612 Y-61.803 Z-2.000
G3 X48.894 Y-62.970 Z-2.000 I-0.012 J-0.797 K0.000
G3 X50.306 Y-62.230 Z-2.000 I0.706 J0.370 K0.000
G3 X49.612 Y-61.803 Z-2.000 I-0.706 J-0.370 K0.000
G1 X49.612 Y-61.803 Z-2.200
G3 X48.894 Y-62.970 Z-2.200 I-0.012 J-0.797 K0.000
G3 X50.306 Y-62.230 Z-2.200 I0.706 J0.370 K0.000
G3 X49.612 Y-61.803 Z-2.200 I-0.706 J-0.370 K0.000
G1 X49.612 Y-61.803 Z-2.400
G3 X48.894 Y-62.970 Z-2.400 I-0.012 J-0.797 K0.000
G3 X50.306 Y-62.230 Z-2.400 I0.706 J0.370 K0.000
G3 X49.612 Y-61.803 Z-2.400 I-0.706 J-0.370 K0.000
G0 Z5.000
G0 Z5.000
G0 X49.612 Y-61.803
G0 X25.643 Y-79.330
G0 X25.643 Y-79.330 Z3.000
G1 X25.643 Y-79.330 Z0.000
G3 X24.547 Y-79.144 Z0.000 I-0.643 J-0.470 K0.000
G3 X25.453 Y-80.456 Z0.000 I0.453 J-0.656 K0.000
G3 X25.643 Y-79.330 Z0.000 I-0.453 J0.656 K0.000
G1 X25.643 Y-79.330 Z-0.200
G3 X24.547 Y-79.144 Z-0.200 I-0.643 J-0.470 K0.000
G3 X25.453 Y-80.456 Z-0.200 I0.453 J-0.656 K0.000
G3 X25.643 Y-79.330 Z-0.200 I-0.453 J0.656 K0.000
G1 X25.643 Y-79.330 Z-0.400
G3 X24.547 Y-79.144 Z-0.400 I-0.643 J-0.470 K0.000
G3 X25.453 Y-80.456 Z-0.400 I0.453 J-0.656 K0.000
G3 X25.643 Y-79.330 Z-0.400 I-0.453 J0.656 K0.000
G1 X25.643 Y-79.330 Z-0.600
G3 X24.547 Y-79.144 Z-0.600 I-0.643 J-0.470 K0.000
G3 X25.453 Y-80.456 Z-0.600 I0.453 J-0.656 K0.000
G3 X25.643 Y-79.330 Z-0.600 I-0.453 J0.656 K0.000
G1 X25.643 Y-79.330 Z-0.800
G3 X24.547 Y-79.144 Z-0.800 I-0.643 J-0.470 K0.000
G3 X25.453 Y-80.456 Z-0.800 I0.453 J-0.656 K0.000
G3 X25.643 Y-79.330 Z-0.800 I-0.453 J0.656 K0.000
G1 X25.643 Y-79.330 Z-1.000
G3 X24.547 Y-79.144 Z-1.000 I-0.643 J-0.470 K0.000
G3 X25.453 Y-80.456 Z-1.000 I0.453 J-0.656 K0.000
G3 X25.643 Y-79.330 Z-1.000 I-0.453 J0.656 K0.000
G1 X25.643 Y-79.330 Z-1.200
G3 X24.547 Y-79.144 Z-1.200 I-0.643 J-0.470 K0.000
G3 X25.453 Y-80.456 Z-1.200 I0.453 J-0.656 K0.000
G3 X25.643 Y-79.330 Z-1.200 I-0.453 J0.656 K0.000
G1 X25.643 Y-79.330 Z-1.400
G3 X24.547 Y-79.144 Z-1.400 I-0.643 J-0.470 K0.000
G3 X25.453 Y-80.456 Z-1.400 I0.453 J-0.656 K0.000
G3 X25.643 Y-79.330 Z-1.400 I-0.453 J0.656 K0.000
G1 X25.643 Y-79.330 Z-1.600
G3 X24.547 Y-79.144 Z-1.600 I-0.643 J-0.470 K0.000
G3 X25.453 Y-80.456 Z-1.600 I0.453 J-0.656 K0.000
G3 X25.643 Y-79.330 Z-1.600 I-0.453 J0.656 K0.000
G1 X25.643 Y-79.330 Z-1.800
G3 X24.547 Y-79.144 Z-1.800 I-0.643 J-0.470 K0.000
G3 X25.453 Y-80.456 Z-1.800 I0.453 J-0.656 K0.000
G3 X25.643 Y-79.330 Z-1.800 I-0.453 J0.656 K0.000
G1 X25.643 Y-79.330 Z-2.000
G3 X24.547 Y-79.144 Z-2.000 I-0.643 J-0.470 K0.000
G3 X25.453 Y-80.456 Z-2.000 I0.453 J-0.656 K0.000
G3 X25.643 Y-79.330 Z-2.000 I-0.453 J0.656 K0.000
G1 X25.643 Y-79.330 Z-2.200
G3 X24.547 Y-79.144 Z-2.200 I-0.643 J-0.470 K0.000
G3 X25.453 Y-80.456 Z-2.200 I0.453 J-0.656 K0.000
G3 X25.643 Y-79.330 Z-2.200 I-0.453 J0.656 K0.000
G1 X25.643 Y-79.330 Z-2.400
G3 X24.547 Y-79.144 Z-2.400 I-0.643 J-0.470 K0.000
G3 X25.453 Y-80.456 Z-2.400 I0.453 J-0.656 K0.000
G3 X25.643 Y-79.330 Z-2.400 I-0.453 J0.656 K0.000
G0 Z5.000
G0 Z5.000
G0 X25.643 Y-79.330
G0 X125.011 Y-65.113
G0 X125.011 Y-65.113 Z3.000
G1 X125.011 Y-65.113 Z0.000
G3 X126.253 Y-65.656 Z0.000 I0.789 J0.113 K0.000
G3 X125.347 Y-64.344 Z0.000 I-0.453 J0.656 K0.000
G3 X125.011 Y-65.113 Z0.000 I0.453 J-0.656 K0.000
G1 X125.011 Y-65.113 Z-0.200
G3 X126.253 Y-65.656 Z-0.200 I0.789 J0.113 K0.000
G3 X125.347 Y-64.344 Z-0.200 I-0.453 J0.656 K0.000
G3 X125.011 Y-65.113 Z-0.200 I0.453 J-0.656 K0.000
G1 X125.011 Y-65.113 Z-0.400
G3 X126.253 Y-65.656 Z-0.400 I0.789 J0.113 K0.000
G3 X125.347 Y-64.344 Z-0.400 I-0.453 J0.656 K0.000
G3 X125.011 Y-65.113 Z-0.400 I0.453 J-0.656 K0.000
G1 X125.011 Y-65.113 Z-0.600
G3 X126.253 Y-65.656 Z-0.600 I0.789 J0.113 K0.000
G3 X125.347 Y-64.344 Z-0.600 I-0.453 J0.656 K0.000
G3 X125.011 Y-65.113 Z-0.600 I0.453 J-0.656 K0.000
G1 X125.011 Y-65.113 Z-0.800
G3 X126.253 Y-65.656 Z-0.800 I0.789 J0.113 K0.000
G3 X125.347 Y-64.344 Z-0.800 I-0.453 J0.656 K0.000
G3 X125.011 Y-65.113 Z-0.800 I0.453 J-0.656 K0.000
G1 X125.011 Y-65.113 Z-1.000
G3 X126.253 Y-65.656 Z-1.000 I0.789 J0.113 K0.000
G3 X125.347 Y-64.344 Z-1.000 I-0.453 J0.656 K0.000
G3 X125.011 Y-65.113 Z-1.000 I0.453 J-0.656 K0.000
G1 X125.011 Y-65.113 Z-1.200
G3 X126.253 Y-65.656 Z-1.200 I0.789 J0.113 K0.000
G3 X125.347 Y-64.344 Z-1.200 I-0.453 J0.656 K0.000
G3 X125.011 Y-65.113 Z-1.200 I0.453 J-0.656 K0.000
G1 X125.011 Y-65.113 Z-1.400
G3 X126.253 Y-65.656 Z-1.400 I0.789 J0.113 K0.000
G3 X125.347 Y-64.344 Z-1.400 I-0.453 J0.656 K0.000
G3 X125.011 Y-65.113 Z-1.400 I0.453 J-0.656 K0.000
G1 X125.011 Y-65.113 Z-1.600
G3 X126.253 Y-65.656 Z-1.600 I0.789 J0.113 K0.000
G3 X125.347 Y-64.344 Z-1.600 I-0.453 J0.656 K0.000
G3 X125.011 Y-65.113 Z-1.600 I0.453 J-0.656 K0.000
G1 X125.011 Y-65.113 Z-1.800
G3 X126.253 Y-65.656 Z-1.800 I0.789 J0.113 K0.000
G3 X125.347 Y-64.344 Z-1.800 I-0.453 J0.656 K0.000
G3 X125.011 Y-65.113 Z-1.800 I0.453 J-0.656 K0.000
G1 X125.011 Y-65.113 Z-2.000
G3 X126.253 Y-65.656 Z-2.000 I0.789 J0.113 K0.000
G3 X125.347 Y-64.344 Z-2.000 I-0.453 J0.656 K0.000
G3 X125.011 Y-65.113 Z-2.000 I0.453 J-0.656 K0.000
G1 X125.011 Y-65.113 Z-2.200
G3 X126.253 Y-65.656 Z-2.200 I0.789 J0.113 K0.000
G3 X125.347 Y-64.344 Z-2.200 I-0.453 J0.656 K0.000
G3 X125.011 Y-65.113 Z-2.200 I0.453 J-0.656 K0.000
G1 X125.011 Y-65.113 Z-2.400
G3 X126.253 Y-65.656 Z-2.400 I0.789 J0.113 K0.000
G3 X125.347 Y-64.344 Z-2.400 I-0.453 J0.656 K0.000
G3 X125.011 Y-65.113 Z-2.400 I0.453 J-0.656 K0.000
G0 Z5.000
G0 Z5.000
G0 X125.011 Y-65.113
G0 X125.784 Y-27.597
G0 X125.784 Y-27.597 Z3.000
G1 X125.784 Y-27.597 Z0.000
G3 X126.253 Y-27.456 Z0.000 I0.016 J0.797 K0.000
G3 X125.347 Y-26.144 Z0.000 I-0.453 J0.656 K0.000
G3 X125.784 Y-27.597 Z0.000 I0.453 J-0.656 K0.000
G1 X125.784 Y-27.597 Z-0.200
G3 X126.253 Y-27.456 Z-0.200 I0.016 J0.797 K0.000
G3 X125.347 Y-26.144 Z-0.200 I-0.453 J0.656 K0.000
G3 X125.784 Y-27.597 Z-0.200 I0.453 J-0.656 K0.000
G1 X125.784 Y-27.597 Z-0.400
G3 X126.253 Y-27.456 Z-0.400 I0.016 J0.797 K0.000
G3 X125.347 Y-26.144 Z-0.400 I-0.453 J0.656 K0.000
G3 X125.784 Y-27.597 Z-0.400 I0.453 J-0.656 K0.000
G1 X125.784 Y-27.597 Z-0.600
G3 X126.253 Y-27.456 Z-0.600 I0.016 J0.797 K0.000
G3 X125.347 Y-26.144 Z-0.600 I-0.453 J0.656 K0.000
G3 X125.784 Y-27.597 Z-0.600 I0.453 J-0.656 K0.000
G1 X125.784 Y-27.597 Z-0.800
G3 X126.253 Y-27.456 Z-0.800 I0.016 J0.797 K0.000
G3 X125.347 Y-26.144 Z-0.800 I-0.453 J0.656 K0.000
G3 X125.784 Y-27.597 Z-0.800 I0.453 J-0.656 K0.000
G1 X125.784 Y-27.597 Z-1.000
G3 X126.253 Y-27.456 Z-1.000 I0.016 J0.797 K0.000
G3 X125.347 Y-26.144 Z-1.000 I-0.453 J0.656 K0.000
G3 X125.784 Y-27.597 Z-1.000 I0.453 J-0.656 K0.000
G1 X125.784 Y-27.597 Z-1.200
G3 X126.253 Y-27.456 Z-1.200 I0.016 J0.797 K0.000
G3 X125.347 Y-26.144 Z-1.200 I-0.453 J0.656 K0.000
G3 X125.784 Y-27.597 Z-1.200 I0.453 J-0.656 K0.000
G1 X125.784 Y-27.597 Z-1.400
G3 X126.253 Y-27.456 Z-1.400 I0.016 J0.797 K0.000
G3 X125.347 Y-26.144 Z-1.400 I-0.453 J0.656 K0.000
G3 X125.784 Y-27.597 Z-1.400 I0.453 J-0.656 K0.000
G1 X125.784 Y-27.597 Z-1.600
G3 X126.253 Y-27.456 Z-1.600 I0.016 J0.797 K0.000
G3 X125.347 Y-26.144 Z-1.600 I-0.453 J0.656 K0.000
G3 X125.784 Y-27.597 Z-1.600 I0.453 J-0.656 K0.000
G1 X125.784 Y-27.597 Z-1.800
G3 X126.253 Y-27.456 Z-1.800 I0.016 J0.797 K0.000
G3 X125.347 Y-26.144 Z-1.800 I-0.453 J0.656 K0.000
G3 X125.784 Y-27.597 Z-1.800 I0.453 J-0.656 K0.000
G1 X125.784 Y-27.597 Z-2.000
G3 X126.253 Y-27.456 Z-2.000 I0.016 J0.797 K0.000
G3 X125.347 Y-26.144 Z-2.000 I-0.453 J0.656 K0.000
G3 X125.784 Y-27.597 Z-2.000 I0.453 J-0.656 K0.000
G1 X125.784 Y-27.597 Z-2.200
G3 X126.253 Y-27.456 Z-2.200 I0.016 J0.797 K0.000
G3 X125.347 Y-26.144 Z-2.200 I-0.453 J0.656 K0.000
G3 X125.784 Y-27.597 Z-2.200 I0.453 J-0.656 K0.000
G1 X125.784 Y-27.597 Z-2.400
G3 X126.253 Y-27.456 Z-2.400 I0.016 J0.797 K0.000
G3 X125.347 Y-26.144 Z-2.400 I-0.453 J0.656 K0.000
G3 X125.784 Y-27.597 Z-2.400 I0.453 J-0.656 K0.000
G0 Z5.000
G0 Z5.000
(Finish operation: 0_8mm Profile Holes)
(Begin postamble)
M5
G17 G90
M2
