(Exported by FreeCAD)
(Post Processor: grbl_post)
(Output Time:2021-05-28 23:45:22.217192)
(Begin preamble)
G17 G90
G21
(Begin operation: TC: Carbide_3_175mm_2flute002)
(Path: TC: Carbide_3_175mm_2flute002)
(TC: Carbide_3_175mm_2flute002)
(Begin toolchange)
( M6 T1.0 )
M3 S0.0
(Finish operation: TC: Carbide_3_175mm_2flute002)
(Begin operation: Fixture)
(Path: Fixture)
G54
G0 Z5.000
(Finish operation: Fixture)
(Begin operation: 3_17mm Profile Perimeter)
(Path: 3_17mm Profile Perimeter)
(3_17mm Profile Perimeter)
(Compensated Tool Path. Diameter: 3.17)
G0 Z5.000
G0 X144.887 Y-5.693
G0 Z3.000
G1 X144.887 Y-5.693 Z-0.500
G2 X145.443 Y-6.081 Z-0.500 I-0.608 J-1.464 K0.000
G1 X146.625 Y-7.362 Z-0.500
G2 X147.045 Y-8.437 Z-0.500 I-1.165 J-1.075 K0.000
G1 X147.045 Y-84.290 Z-0.500
G2 X144.137 Y-87.365 Z-0.500 I-3.088 J0.008 K0.000
G1 X101.876 Y-87.375 Z-0.500
G3 X99.904 Y-89.346 Z-0.500 I-0.047 J-1.924 K0.000
G1 X99.904 Y-99.012 Z-0.500
G2 X96.996 Y-102.087 Z-0.500 I-3.088 J0.008 K0.000
G2 X38.288 Y-102.096 Z-0.500 I-38.845 J62487.834 K0.000
G2 X25.080 Y-109.730 Z-0.500 I-2304.507 J3971.521 K0.000
G1 X24.634 Y-109.904 Z-0.500
G2 X21.993 Y-108.656 Z-0.500 I-0.597 J2.155 K0.000
G1 X8.625 Y-85.788 Z-0.500
G1 X6.854 Y-81.985 Z-0.500
G1 X5.380 Y-78.090 Z-0.500
G1 X4.171 Y-74.108 Z-0.500
G1 X3.205 Y-70.062 Z-0.500
G2 X1.354 Y-53.658 Z-0.500 I95.379 J19.070 K0.000
G1 X1.353 Y-3.137 Z-0.500
G2 X3.988 Y-0.502 Z-0.500 I2.649 J-0.014 K0.000
G1 X87.251 Y-0.502 Z-0.500
G1 X99.007 Y-0.631 Z-0.500
G1 X109.973 Y-1.001 Z-0.500
G1 X119.901 Y-1.588 Z-0.500
G1 X128.563 Y-2.367 Z-0.500
G1 X135.733 Y-3.314 Z-0.500
G1 X141.202 Y-4.410 Z-0.500
G1 X141.415 Y-4.469 Z-0.500
G1 X144.804 Y-5.661 Z-0.500
G2 X144.887 Y-5.693 Z-0.500 I-0.526 J-1.495 K0.000
G1 X144.887 Y-5.693 Z-1.000
G2 X145.443 Y-6.081 Z-1.000 I-0.608 J-1.464 K0.000
G1 X146.625 Y-7.362 Z-1.000
G2 X147.045 Y-8.437 Z-1.000 I-1.165 J-1.075 K0.000
G1 X147.045 Y-84.290 Z-1.000
G2 X144.137 Y-87.365 Z-1.000 I-3.088 J0.008 K0.000
G1 X101.876 Y-87.375 Z-1.000
G3 X99.904 Y-89.346 Z-1.000 I-0.047 J-1.924 K0.000
G1 X99.904 Y-99.012 Z-1.000
G2 X96.996 Y-102.087 Z-1.000 I-3.088 J0.008 K0.000
G2 X38.288 Y-102.096 Z-1.000 I-38.845 J62487.834 K0.000
G2 X25.080 Y-109.730 Z-1.000 I-2304.507 J3971.521 K0.000
G1 X24.634 Y-109.904 Z-1.000
G2 X21.993 Y-108.656 Z-1.000 I-0.597 J2.155 K0.000
G1 X8.625 Y-85.788 Z-1.000
G1 X6.854 Y-81.985 Z-1.000
G1 X5.380 Y-78.090 Z-1.000
G1 X4.171 Y-74.108 Z-1.000
G1 X3.205 Y-70.062 Z-1.000
G2 X1.354 Y-53.658 Z-1.000 I95.379 J19.070 K0.000
G1 X1.353 Y-3.137 Z-1.000
G2 X3.988 Y-0.502 Z-1.000 I2.649 J-0.014 K0.000
G1 X87.251 Y-0.502 Z-1.000
G1 X99.007 Y-0.631 Z-1.000
G1 X109.973 Y-1.001 Z-1.000
G1 X119.901 Y-1.588 Z-1.000
G1 X128.563 Y-2.367 Z-1.000
G1 X135.733 Y-3.314 Z-1.000
G1 X141.202 Y-4.410 Z-1.000
G1 X141.415 Y-4.469 Z-1.000
G1 X144.804 Y-5.661 Z-1.000
G2 X144.887 Y-5.693 Z-1.000 I-0.526 J-1.495 K0.000
G1 X144.887 Y-5.693 Z-1.500
G2 X145.443 Y-6.081 Z-1.500 I-0.608 J-1.464 K0.000
G1 X146.625 Y-7.362 Z-1.500
G2 X147.045 Y-8.437 Z-1.500 I-1.165 J-1.075 K0.000
G1 X147.045 Y-84.290 Z-1.500
G2 X144.137 Y-87.365 Z-1.500 I-3.088 J0.008 K0.000
G1 X101.876 Y-87.375 Z-1.500
G3 X99.904 Y-89.346 Z-1.500 I-0.047 J-1.924 K0.000
G1 X99.904 Y-99.012 Z-1.500
G2 X96.996 Y-102.087 Z-1.500 I-3.088 J0.008 K0.000
G2 X38.288 Y-102.096 Z-1.500 I-38.845 J62487.834 K0.000
G2 X25.080 Y-109.730 Z-1.500 I-2304.507 J3971.521 K0.000
G1 X24.634 Y-109.904 Z-1.500
G2 X21.993 Y-108.656 Z-1.500 I-0.597 J2.155 K0.000
G1 X8.625 Y-85.788 Z-1.500
G1 X6.854 Y-81.985 Z-1.500
G1 X5.380 Y-78.090 Z-1.500
G1 X4.171 Y-74.108 Z-1.500
G1 X3.205 Y-70.062 Z-1.500
G2 X1.354 Y-53.658 Z-1.500 I95.379 J19.070 K0.000
G1 X1.353 Y-3.137 Z-1.500
G2 X3.988 Y-0.502 Z-1.500 I2.649 J-0.014 K0.000
G1 X87.251 Y-0.502 Z-1.500
G1 X99.007 Y-0.631 Z-1.500
G1 X109.973 Y-1.001 Z-1.500
G1 X119.901 Y-1.588 Z-1.500
G1 X128.563 Y-2.367 Z-1.500
G1 X135.733 Y-3.314 Z-1.500
G1 X141.202 Y-4.410 Z-1.500
G1 X141.415 Y-4.469 Z-1.500
G1 X144.804 Y-5.661 Z-1.500
G2 X144.887 Y-5.693 Z-1.500 I-0.526 J-1.495 K0.000
G1 X144.887 Y-5.693 Z-1.600
G2 X145.443 Y-6.081 Z-1.600 I-0.608 J-1.464 K0.000
G1 X146.625 Y-7.362 Z-1.600
G2 X147.045 Y-8.437 Z-1.600 I-1.165 J-1.075 K0.000
G1 X147.045 Y-84.290 Z-1.600
G2 X144.137 Y-87.365 Z-1.600 I-3.088 J0.008 K0.000
G1 X101.876 Y-87.375 Z-1.600
G3 X99.904 Y-89.346 Z-1.600 I-0.047 J-1.924 K0.000
G1 X99.904 Y-99.012 Z-1.600
G2 X96.996 Y-102.087 Z-1.600 I-3.088 J0.008 K0.000
G2 X38.288 Y-102.096 Z-1.600 I-38.845 J62487.834 K0.000
G2 X25.080 Y-109.730 Z-1.600 I-2304.507 J3971.521 K0.000
G1 X24.634 Y-109.904 Z-1.600
G2 X21.993 Y-108.656 Z-1.600 I-0.597 J2.155 K0.000
G1 X8.625 Y-85.788 Z-1.600
G1 X6.854 Y-81.985 Z-1.600
G1 X5.380 Y-78.090 Z-1.600
G1 X4.171 Y-74.108 Z-1.600
G1 X3.205 Y-70.062 Z-1.600
G2 X1.354 Y-53.658 Z-1.600 I95.379 J19.070 K0.000
G1 X1.353 Y-3.137 Z-1.600
G2 X3.988 Y-0.502 Z-1.600 I2.649 J-0.014 K0.000
G1 X87.251 Y-0.502 Z-1.600
G1 X99.007 Y-0.631 Z-1.600
G1 X109.973 Y-1.001 Z-1.600
G1 X119.901 Y-1.588 Z-1.600
G1 X128.563 Y-2.367 Z-1.600
G1 X135.733 Y-3.314 Z-1.600
G1 X141.202 Y-4.410 Z-1.600
G1 X141.415 Y-4.469 Z-1.600
G1 X144.804 Y-5.661 Z-1.600
G2 X144.887 Y-5.693 Z-1.600 I-0.526 J-1.495 K0.000
G0 Z5.000
G0 Z5.000
(Finish operation: 3_17mm Profile Perimeter)
(Begin postamble)
M5
G17 G90
M2
