(Exported by FreeCAD)
(Post Processor: grbl_post)
(Output Time:2021-05-28 23:46:24.288581)
(Begin preamble)
G17 G90
G21
(Begin operation: Fixture)
(Path: Fixture)
G54
(Finish operation: Fixture)
(Begin operation: HSS_0_8mm001)
(Path: HSS_0_8mm001)
(HSS_0_8mm001)
(Begin toolchange)
( M6 T1.0 )
M3 S0.0
(Finish operation: HSS_0_8mm001)
(Begin operation: Screwholes)
(Path: Screwholes)
(Screwholes)
(Compensated Tool Path. Diameter: 0.8)
G0 Z5.000
G0 X48.227 Y-23.001
G0 Z3.000
G1 X48.227 Y-23.001 Z-0.100
G3 X47.211 Y-22.908 Z-0.100 I-0.564 J-0.564 K0.000
G3 X48.116 Y-24.220 Z-0.100 I0.453 J-0.656 K0.000
G3 X48.227 Y-23.001 Z-0.100 I-0.453 J0.656 K0.000
G1 X48.227 Y-23.001 Z-0.200
G3 X47.211 Y-22.908 Z-0.200 I-0.564 J-0.564 K0.000
G3 X48.116 Y-24.220 Z-0.200 I0.453 J-0.656 K0.000
G3 X48.227 Y-23.001 Z-0.200 I-0.453 J0.656 K0.000
G1 X48.227 Y-23.001 Z-0.300
G3 X47.211 Y-22.908 Z-0.300 I-0.564 J-0.564 K0.000
G3 X48.116 Y-24.220 Z-0.300 I0.453 J-0.656 K0.000
G3 X48.227 Y-23.001 Z-0.300 I-0.453 J0.656 K0.000
G1 X48.227 Y-23.001 Z-0.400
G3 X47.211 Y-22.908 Z-0.400 I-0.564 J-0.564 K0.000
G3 X48.116 Y-24.220 Z-0.400 I0.453 J-0.656 K0.000
G3 X48.227 Y-23.001 Z-0.400 I-0.453 J0.656 K0.000
G1 X48.227 Y-23.001 Z-0.500
G3 X47.211 Y-22.908 Z-0.500 I-0.564 J-0.564 K0.000
G3 X48.116 Y-24.220 Z-0.500 I0.453 J-0.656 K0.000
G3 X48.227 Y-23.001 Z-0.500 I-0.453 J0.656 K0.000
G1 X48.227 Y-23.001 Z-0.600
G3 X47.211 Y-22.908 Z-0.600 I-0.564 J-0.564 K0.000
G3 X48.116 Y-24.220 Z-0.600 I0.453 J-0.656 K0.000
G3 X48.227 Y-23.001 Z-0.600 I-0.453 J0.656 K0.000
G1 X48.227 Y-23.001 Z-0.700
G3 X47.211 Y-22.908 Z-0.700 I-0.564 J-0.564 K0.000
G3 X48.116 Y-24.220 Z-0.700 I0.453 J-0.656 K0.000
G3 X48.227 Y-23.001 Z-0.700 I-0.453 J0.656 K0.000
G1 X48.227 Y-23.001 Z-0.800
G3 X47.211 Y-22.908 Z-0.800 I-0.564 J-0.564 K0.000
G3 X48.116 Y-24.220 Z-0.800 I0.453 J-0.656 K0.000
G3 X48.227 Y-23.001 Z-0.800 I-0.453 J0.656 K0.000
G1 X48.227 Y-23.001 Z-0.900
G3 X47.211 Y-22.908 Z-0.900 I-0.564 J-0.564 K0.000
G3 X48.116 Y-24.220 Z-0.900 I0.453 J-0.656 K0.000
G3 X48.227 Y-23.001 Z-0.900 I-0.453 J0.656 K0.000
G1 X48.227 Y-23.001 Z-1.000
G3 X47.211 Y-22.908 Z-1.000 I-0.564 J-0.564 K0.000
G3 X48.116 Y-24.220 Z-1.000 I0.453 J-0.656 K0.000
G3 X48.227 Y-23.001 Z-1.000 I-0.453 J0.656 K0.000
G1 X48.227 Y-23.001 Z-1.100
G3 X47.211 Y-22.908 Z-1.100 I-0.564 J-0.564 K0.000
G3 X48.116 Y-24.220 Z-1.100 I0.453 J-0.656 K0.000
G3 X48.227 Y-23.001 Z-1.100 I-0.453 J0.656 K0.000
G1 X48.227 Y-23.001 Z-1.200
G3 X47.211 Y-22.908 Z-1.200 I-0.564 J-0.564 K0.000
G3 X48.116 Y-24.220 Z-1.200 I0.453 J-0.656 K0.000
G3 X48.227 Y-23.001 Z-1.200 I-0.453 J0.656 K0.000
G1 X48.227 Y-23.001 Z-1.300
G3 X47.211 Y-22.908 Z-1.300 I-0.564 J-0.564 K0.000
G3 X48.116 Y-24.220 Z-1.300 I0.453 J-0.656 K0.000
G3 X48.227 Y-23.001 Z-1.300 I-0.453 J0.656 K0.000
G1 X48.227 Y-23.001 Z-1.400
G3 X47.211 Y-22.908 Z-1.400 I-0.564 J-0.564 K0.000
G3 X48.116 Y-24.220 Z-1.400 I0.453 J-0.656 K0.000
G3 X48.227 Y-23.001 Z-1.400 I-0.453 J0.656 K0.000
G1 X48.227 Y-23.001 Z-1.500
G3 X47.211 Y-22.908 Z-1.500 I-0.564 J-0.564 K0.000
G3 X48.116 Y-24.220 Z-1.500 I0.453 J-0.656 K0.000
G3 X48.227 Y-23.001 Z-1.500 I-0.453 J0.656 K0.000
G1 X48.227 Y-23.001 Z-1.600
G3 X47.211 Y-22.908 Z-1.600 I-0.564 J-0.564 K0.000
G3 X48.116 Y-24.220 Z-1.600 I0.453 J-0.656 K0.000
G3 X48.227 Y-23.001 Z-1.600 I-0.453 J0.656 K0.000
G1 X48.227 Y-23.001 Z-1.700
G3 X47.211 Y-22.908 Z-1.700 I-0.564 J-0.564 K0.000
G3 X48.116 Y-24.220 Z-1.700 I0.453 J-0.656 K0.000
G3 X48.227 Y-23.001 Z-1.700 I-0.453 J0.656 K0.000
G1 X48.227 Y-23.001 Z-1.800
G3 X47.211 Y-22.908 Z-1.800 I-0.564 J-0.564 K0.000
G3 X48.116 Y-24.220 Z-1.800 I0.453 J-0.656 K0.000
G3 X48.227 Y-23.001 Z-1.800 I-0.453 J0.656 K0.000
G1 X48.227 Y-23.001 Z-1.900
G3 X47.211 Y-22.908 Z-1.900 I-0.564 J-0.564 K0.000
G3 X48.116 Y-24.220 Z-1.900 I0.453 J-0.656 K0.000
G3 X48.227 Y-23.001 Z-1.900 I-0.453 J0.656 K0.000
G1 X48.227 Y-23.001 Z-2.000
G3 X47.211 Y-22.908 Z-2.000 I-0.564 J-0.564 K0.000
G3 X48.116 Y-24.220 Z-2.000 I0.453 J-0.656 K0.000
G3 X48.227 Y-23.001 Z-2.000 I-0.453 J0.656 K0.000
G1 X48.227 Y-23.001 Z-2.100
G3 X47.211 Y-22.908 Z-2.100 I-0.564 J-0.564 K0.000
G3 X48.116 Y-24.220 Z-2.100 I0.453 J-0.656 K0.000
G3 X48.227 Y-23.001 Z-2.100 I-0.453 J0.656 K0.000
G1 X48.227 Y-23.001 Z-2.200
G3 X47.211 Y-22.908 Z-2.200 I-0.564 J-0.564 K0.000
G3 X48.116 Y-24.220 Z-2.200 I0.453 J-0.656 K0.000
G3 X48.227 Y-23.001 Z-2.200 I-0.453 J0.656 K0.000
G1 X48.227 Y-23.001 Z-2.300
G3 X47.211 Y-22.908 Z-2.300 I-0.564 J-0.564 K0.000
G3 X48.116 Y-24.220 Z-2.300 I0.453 J-0.656 K0.000
G3 X48.227 Y-23.001 Z-2.300 I-0.453 J0.656 K0.000
G1 X48.227 Y-23.001 Z-2.400
G3 X47.211 Y-22.908 Z-2.400 I-0.564 J-0.564 K0.000
G3 X48.116 Y-24.220 Z-2.400 I0.453 J-0.656 K0.000
G3 X48.227 Y-23.001 Z-2.400 I-0.453 J0.656 K0.000
G0 Z5.000
G0 Z5.000
G0 X48.227 Y-23.001
G0 X47.675 Y-60.767
G0 X47.675 Y-60.767 Z3.000
G1 X47.675 Y-60.767 Z-0.100
G3 X46.958 Y-61.935 Z-0.100 I-0.012 J-0.797 K0.000
G3 X48.369 Y-61.194 Z-0.100 I0.706 J0.370 K0.000
G3 X47.675 Y-60.767 Z-0.100 I-0.706 J-0.370 K0.000
G1 X47.675 Y-60.767 Z-0.200
G3 X46.958 Y-61.935 Z-0.200 I-0.012 J-0.797 K0.000
G3 X48.369 Y-61.194 Z-0.200 I0.706 J0.370 K0.000
G3 X47.675 Y-60.767 Z-0.200 I-0.706 J-0.370 K0.000
G1 X47.675 Y-60.767 Z-0.300
G3 X46.958 Y-61.935 Z-0.300 I-0.012 J-0.797 K0.000
G3 X48.369 Y-61.194 Z-0.300 I0.706 J0.370 K0.000
G3 X47.675 Y-60.767 Z-0.300 I-0.706 J-0.370 K0.000
G1 X47.675 Y-60.767 Z-0.400
G3 X46.958 Y-61.935 Z-0.400 I-0.012 J-0.797 K0.000
G3 X48.369 Y-61.194 Z-0.400 I0.706 J0.370 K0.000
G3 X47.675 Y-60.767 Z-0.400 I-0.706 J-0.370 K0.000
G1 X47.675 Y-60.767 Z-0.500
G3 X46.958 Y-61.935 Z-0.500 I-0.012 J-0.797 K0.000
G3 X48.369 Y-61.194 Z-0.500 I0.706 J0.370 K0.000
G3 X47.675 Y-60.767 Z-0.500 I-0.706 J-0.370 K0.000
G1 X47.675 Y-60.767 Z-0.600
G3 X46.958 Y-61.935 Z-0.600 I-0.012 J-0.797 K0.000
G3 X48.369 Y-61.194 Z-0.600 I0.706 J0.370 K0.000
G3 X47.675 Y-60.767 Z-0.600 I-0.706 J-0.370 K0.000
G1 X47.675 Y-60.767 Z-0.700
G3 X46.958 Y-61.935 Z-0.700 I-0.012 J-0.797 K0.000
G3 X48.369 Y-61.194 Z-0.700 I0.706 J0.370 K0.000
G3 X47.675 Y-60.767 Z-0.700 I-0.706 J-0.370 K0.000
G1 X47.675 Y-60.767 Z-0.800
G3 X46.958 Y-61.935 Z-0.800 I-0.012 J-0.797 K0.000
G3 X48.369 Y-61.194 Z-0.800 I0.706 J0.370 K0.000
G3 X47.675 Y-60.767 Z-0.800 I-0.706 J-0.370 K0.000
G1 X47.675 Y-60.767 Z-0.900
G3 X46.958 Y-61.935 Z-0.900 I-0.012 J-0.797 K0.000
G3 X48.369 Y-61.194 Z-0.900 I0.706 J0.370 K0.000
G3 X47.675 Y-60.767 Z-0.900 I-0.706 J-0.370 K0.000
G1 X47.675 Y-60.767 Z-1.000
G3 X46.958 Y-61.935 Z-1.000 I-0.012 J-0.797 K0.000
G3 X48.369 Y-61.194 Z-1.000 I0.706 J0.370 K0.000
G3 X47.675 Y-60.767 Z-1.000 I-0.706 J-0.370 K0.000
G1 X47.675 Y-60.767 Z-1.100
G3 X46.958 Y-61.935 Z-1.100 I-0.012 J-0.797 K0.000
G3 X48.369 Y-61.194 Z-1.100 I0.706 J0.370 K0.000
G3 X47.675 Y-60.767 Z-1.100 I-0.706 J-0.370 K0.000
G1 X47.675 Y-60.767 Z-1.200
G3 X46.958 Y-61.935 Z-1.200 I-0.012 J-0.797 K0.000
G3 X48.369 Y-61.194 Z-1.200 I0.706 J0.370 K0.000
G3 X47.675 Y-60.767 Z-1.200 I-0.706 J-0.370 K0.000
G1 X47.675 Y-60.767 Z-1.300
G3 X46.958 Y-61.935 Z-1.300 I-0.012 J-0.797 K0.000
G3 X48.369 Y-61.194 Z-1.300 I0.706 J0.370 K0.000
G3 X47.675 Y-60.767 Z-1.300 I-0.706 J-0.370 K0.000
G1 X47.675 Y-60.767 Z-1.400
G3 X46.958 Y-61.935 Z-1.400 I-0.012 J-0.797 K0.000
G3 X48.369 Y-61.194 Z-1.400 I0.706 J0.370 K0.000
G3 X47.675 Y-60.767 Z-1.400 I-0.706 J-0.370 K0.000
G1 X47.675 Y-60.767 Z-1.500
G3 X46.958 Y-61.935 Z-1.500 I-0.012 J-0.797 K0.000
G3 X48.369 Y-61.194 Z-1.500 I0.706 J0.370 K0.000
G3 X47.675 Y-60.767 Z-1.500 I-0.706 J-0.370 K0.000
G1 X47.675 Y-60.767 Z-1.600
G3 X46.958 Y-61.935 Z-1.600 I-0.012 J-0.797 K0.000
G3 X48.369 Y-61.194 Z-1.600 I0.706 J0.370 K0.000
G3 X47.675 Y-60.767 Z-1.600 I-0.706 J-0.370 K0.000
G1 X47.675 Y-60.767 Z-1.700
G3 X46.958 Y-61.935 Z-1.700 I-0.012 J-0.797 K0.000
G3 X48.369 Y-61.194 Z-1.700 I0.706 J0.370 K0.000
G3 X47.675 Y-60.767 Z-1.700 I-0.706 J-0.370 K0.000
G1 X47.675 Y-60.767 Z-1.800
G3 X46.958 Y-61.935 Z-1.800 I-0.012 J-0.797 K0.000
G3 X48.369 Y-61.194 Z-1.800 I0.706 J0.370 K0.000
G3 X47.675 Y-60.767 Z-1.800 I-0.706 J-0.370 K0.000
G1 X47.675 Y-60.767 Z-1.900
G3 X46.958 Y-61.935 Z-1.900 I-0.012 J-0.797 K0.000
G3 X48.369 Y-61.194 Z-1.900 I0.706 J0.370 K0.000
G3 X47.675 Y-60.767 Z-1.900 I-0.706 J-0.370 K0.000
G1 X47.675 Y-60.767 Z-2.000
G3 X46.958 Y-61.935 Z-2.000 I-0.012 J-0.797 K0.000
G3 X48.369 Y-61.194 Z-2.000 I0.706 J0.370 K0.000
G3 X47.675 Y-60.767 Z-2.000 I-0.706 J-0.370 K0.000
G1 X47.675 Y-60.767 Z-2.100
G3 X46.958 Y-61.935 Z-2.100 I-0.012 J-0.797 K0.000
G3 X48.369 Y-61.194 Z-2.100 I0.706 J0.370 K0.000
G3 X47.675 Y-60.767 Z-2.100 I-0.706 J-0.370 K0.000
G1 X47.675 Y-60.767 Z-2.200
G3 X46.958 Y-61.935 Z-2.200 I-0.012 J-0.797 K0.000
G3 X48.369 Y-61.194 Z-2.200 I0.706 J0.370 K0.000
G3 X47.675 Y-60.767 Z-2.200 I-0.706 J-0.370 K0.000
G1 X47.675 Y-60.767 Z-2.300
G3 X46.958 Y-61.935 Z-2.300 I-0.012 J-0.797 K0.000
G3 X48.369 Y-61.194 Z-2.300 I0.706 J0.370 K0.000
G3 X47.675 Y-60.767 Z-2.300 I-0.706 J-0.370 K0.000
G1 X47.675 Y-60.767 Z-2.400
G3 X46.958 Y-61.935 Z-2.400 I-0.012 J-0.797 K0.000
G3 X48.369 Y-61.194 Z-2.400 I0.706 J0.370 K0.000
G3 X47.675 Y-60.767 Z-2.400 I-0.706 J-0.370 K0.000
G0 Z5.000
G0 Z5.000
G0 X47.675 Y-60.767
G0 X23.707 Y-78.294
G0 X23.707 Y-78.294 Z3.000
G1 X23.707 Y-78.294 Z-0.100
G3 X22.611 Y-78.108 Z-0.100 I-0.643 J-0.470 K0.000
G3 X23.516 Y-79.420 Z-0.100 I0.453 J-0.656 K0.000
G3 X23.707 Y-78.294 Z-0.100 I-0.453 J0.656 K0.000
G1 X23.707 Y-78.294 Z-0.200
G3 X22.611 Y-78.108 Z-0.200 I-0.643 J-0.470 K0.000
G3 X23.516 Y-79.420 Z-0.200 I0.453 J-0.656 K0.000
G3 X23.707 Y-78.294 Z-0.200 I-0.453 J0.656 K0.000
G1 X23.707 Y-78.294 Z-0.300
G3 X22.611 Y-78.108 Z-0.300 I-0.643 J-0.470 K0.000
G3 X23.516 Y-79.420 Z-0.300 I0.453 J-0.656 K0.000
G3 X23.707 Y-78.294 Z-0.300 I-0.453 J0.656 K0.000
G1 X23.707 Y-78.294 Z-0.400
G3 X22.611 Y-78.108 Z-0.400 I-0.643 J-0.470 K0.000
G3 X23.516 Y-79.420 Z-0.400 I0.453 J-0.656 K0.000
G3 X23.707 Y-78.294 Z-0.400 I-0.453 J0.656 K0.000
G1 X23.707 Y-78.294 Z-0.500
G3 X22.611 Y-78.108 Z-0.500 I-0.643 J-0.470 K0.000
G3 X23.516 Y-79.420 Z-0.500 I0.453 J-0.656 K0.000
G3 X23.707 Y-78.294 Z-0.500 I-0.453 J0.656 K0.000
G1 X23.707 Y-78.294 Z-0.600
G3 X22.611 Y-78.108 Z-0.600 I-0.643 J-0.470 K0.000
G3 X23.516 Y-79.420 Z-0.600 I0.453 J-0.656 K0.000
G3 X23.707 Y-78.294 Z-0.600 I-0.453 J0.656 K0.000
G1 X23.707 Y-78.294 Z-0.700
G3 X22.611 Y-78.108 Z-0.700 I-0.643 J-0.470 K0.000
G3 X23.516 Y-79.420 Z-0.700 I0.453 J-0.656 K0.000
G3 X23.707 Y-78.294 Z-0.700 I-0.453 J0.656 K0.000
G1 X23.707 Y-78.294 Z-0.800
G3 X22.611 Y-78.108 Z-0.800 I-0.643 J-0.470 K0.000
G3 X23.516 Y-79.420 Z-0.800 I0.453 J-0.656 K0.000
G3 X23.707 Y-78.294 Z-0.800 I-0.453 J0.656 K0.000
G1 X23.707 Y-78.294 Z-0.900
G3 X22.611 Y-78.108 Z-0.900 I-0.643 J-0.470 K0.000
G3 X23.516 Y-79.420 Z-0.900 I0.453 J-0.656 K0.000
G3 X23.707 Y-78.294 Z-0.900 I-0.453 J0.656 K0.000
G1 X23.707 Y-78.294 Z-1.000
G3 X22.611 Y-78.108 Z-1.000 I-0.643 J-0.470 K0.000
G3 X23.516 Y-79.420 Z-1.000 I0.453 J-0.656 K0.000
G3 X23.707 Y-78.294 Z-1.000 I-0.453 J0.656 K0.000
G1 X23.707 Y-78.294 Z-1.100
G3 X22.611 Y-78.108 Z-1.100 I-0.643 J-0.470 K0.000
G3 X23.516 Y-79.420 Z-1.100 I0.453 J-0.656 K0.000
G3 X23.707 Y-78.294 Z-1.100 I-0.453 J0.656 K0.000
G1 X23.707 Y-78.294 Z-1.200
G3 X22.611 Y-78.108 Z-1.200 I-0.643 J-0.470 K0.000
G3 X23.516 Y-79.420 Z-1.200 I0.453 J-0.656 K0.000
G3 X23.707 Y-78.294 Z-1.200 I-0.453 J0.656 K0.000
G1 X23.707 Y-78.294 Z-1.300
G3 X22.611 Y-78.108 Z-1.300 I-0.643 J-0.470 K0.000
G3 X23.516 Y-79.420 Z-1.300 I0.453 J-0.656 K0.000
G3 X23.707 Y-78.294 Z-1.300 I-0.453 J0.656 K0.000
G1 X23.707 Y-78.294 Z-1.400
G3 X22.611 Y-78.108 Z-1.400 I-0.643 J-0.470 K0.000
G3 X23.516 Y-79.420 Z-1.400 I0.453 J-0.656 K0.000
G3 X23.707 Y-78.294 Z-1.400 I-0.453 J0.656 K0.000
G1 X23.707 Y-78.294 Z-1.500
G3 X22.611 Y-78.108 Z-1.500 I-0.643 J-0.470 K0.000
G3 X23.516 Y-79.420 Z-1.500 I0.453 J-0.656 K0.000
G3 X23.707 Y-78.294 Z-1.500 I-0.453 J0.656 K0.000
G1 X23.707 Y-78.294 Z-1.600
G3 X22.611 Y-78.108 Z-1.600 I-0.643 J-0.470 K0.000
G3 X23.516 Y-79.420 Z-1.600 I0.453 J-0.656 K0.000
G3 X23.707 Y-78.294 Z-1.600 I-0.453 J0.656 K0.000
G1 X23.707 Y-78.294 Z-1.700
G3 X22.611 Y-78.108 Z-1.700 I-0.643 J-0.470 K0.000
G3 X23.516 Y-79.420 Z-1.700 I0.453 J-0.656 K0.000
G3 X23.707 Y-78.294 Z-1.700 I-0.453 J0.656 K0.000
G1 X23.707 Y-78.294 Z-1.800
G3 X22.611 Y-78.108 Z-1.800 I-0.643 J-0.470 K0.000
G3 X23.516 Y-79.420 Z-1.800 I0.453 J-0.656 K0.000
G3 X23.707 Y-78.294 Z-1.800 I-0.453 J0.656 K0.000
G1 X23.707 Y-78.294 Z-1.900
G3 X22.611 Y-78.108 Z-1.900 I-0.643 J-0.470 K0.000
G3 X23.516 Y-79.420 Z-1.900 I0.453 J-0.656 K0.000
G3 X23.707 Y-78.294 Z-1.900 I-0.453 J0.656 K0.000
G1 X23.707 Y-78.294 Z-2.000
G3 X22.611 Y-78.108 Z-2.000 I-0.643 J-0.470 K0.000
G3 X23.516 Y-79.420 Z-2.000 I0.453 J-0.656 K0.000
G3 X23.707 Y-78.294 Z-2.000 I-0.453 J0.656 K0.000
G1 X23.707 Y-78.294 Z-2.100
G3 X22.611 Y-78.108 Z-2.100 I-0.643 J-0.470 K0.000
G3 X23.516 Y-79.420 Z-2.100 I0.453 J-0.656 K0.000
G3 X23.707 Y-78.294 Z-2.100 I-0.453 J0.656 K0.000
G1 X23.707 Y-78.294 Z-2.200
G3 X22.611 Y-78.108 Z-2.200 I-0.643 J-0.470 K0.000
G3 X23.516 Y-79.420 Z-2.200 I0.453 J-0.656 K0.000
G3 X23.707 Y-78.294 Z-2.200 I-0.453 J0.656 K0.000
G1 X23.707 Y-78.294 Z-2.300
G3 X22.611 Y-78.108 Z-2.300 I-0.643 J-0.470 K0.000
G3 X23.516 Y-79.420 Z-2.300 I0.453 J-0.656 K0.000
G3 X23.707 Y-78.294 Z-2.300 I-0.453 J0.656 K0.000
G1 X23.707 Y-78.294 Z-2.400
G3 X22.611 Y-78.108 Z-2.400 I-0.643 J-0.470 K0.000
G3 X23.516 Y-79.420 Z-2.400 I0.453 J-0.656 K0.000
G3 X23.707 Y-78.294 Z-2.400 I-0.453 J0.656 K0.000
G0 Z5.000
G0 Z5.000
G0 X23.707 Y-78.294
G0 X123.075 Y-64.077
G0 X123.075 Y-64.077 Z3.000
G1 X123.075 Y-64.077 Z-0.100
G3 X124.316 Y-64.620 Z-0.100 I0.789 J0.113 K0.000
G3 X123.411 Y-63.308 Z-0.100 I-0.453 J0.656 K0.000
G3 X123.075 Y-64.077 Z-0.100 I0.453 J-0.656 K0.000
G1 X123.075 Y-64.077 Z-0.200
G3 X124.316 Y-64.620 Z-0.200 I0.789 J0.113 K0.000
G3 X123.411 Y-63.308 Z-0.200 I-0.453 J0.656 K0.000
G3 X123.075 Y-64.077 Z-0.200 I0.453 J-0.656 K0.000
G1 X123.075 Y-64.077 Z-0.300
G3 X124.316 Y-64.620 Z-0.300 I0.789 J0.113 K0.000
G3 X123.411 Y-63.308 Z-0.300 I-0.453 J0.656 K0.000
G3 X123.075 Y-64.077 Z-0.300 I0.453 J-0.656 K0.000
G1 X123.075 Y-64.077 Z-0.400
G3 X124.316 Y-64.620 Z-0.400 I0.789 J0.113 K0.000
G3 X123.411 Y-63.308 Z-0.400 I-0.453 J0.656 K0.000
G3 X123.075 Y-64.077 Z-0.400 I0.453 J-0.656 K0.000
G1 X123.075 Y-64.077 Z-0.500
G3 X124.316 Y-64.620 Z-0.500 I0.789 J0.113 K0.000
G3 X123.411 Y-63.308 Z-0.500 I-0.453 J0.656 K0.000
G3 X123.075 Y-64.077 Z-0.500 I0.453 J-0.656 K0.000
G1 X123.075 Y-64.077 Z-0.600
G3 X124.316 Y-64.620 Z-0.600 I0.789 J0.113 K0.000
G3 X123.411 Y-63.308 Z-0.600 I-0.453 J0.656 K0.000
G3 X123.075 Y-64.077 Z-0.600 I0.453 J-0.656 K0.000
G1 X123.075 Y-64.077 Z-0.700
G3 X124.316 Y-64.620 Z-0.700 I0.789 J0.113 K0.000
G3 X123.411 Y-63.308 Z-0.700 I-0.453 J0.656 K0.000
G3 X123.075 Y-64.077 Z-0.700 I0.453 J-0.656 K0.000
G1 X123.075 Y-64.077 Z-0.800
G3 X124.316 Y-64.620 Z-0.800 I0.789 J0.113 K0.000
G3 X123.411 Y-63.308 Z-0.800 I-0.453 J0.656 K0.000
G3 X123.075 Y-64.077 Z-0.800 I0.453 J-0.656 K0.000
G1 X123.075 Y-64.077 Z-0.900
G3 X124.316 Y-64.620 Z-0.900 I0.789 J0.113 K0.000
G3 X123.411 Y-63.308 Z-0.900 I-0.453 J0.656 K0.000
G3 X123.075 Y-64.077 Z-0.900 I0.453 J-0.656 K0.000
G1 X123.075 Y-64.077 Z-1.000
G3 X124.316 Y-64.620 Z-1.000 I0.789 J0.113 K0.000
G3 X123.411 Y-63.308 Z-1.000 I-0.453 J0.656 K0.000
G3 X123.075 Y-64.077 Z-1.000 I0.453 J-0.656 K0.000
G1 X123.075 Y-64.077 Z-1.100
G3 X124.316 Y-64.620 Z-1.100 I0.789 J0.113 K0.000
G3 X123.411 Y-63.308 Z-1.100 I-0.453 J0.656 K0.000
G3 X123.075 Y-64.077 Z-1.100 I0.453 J-0.656 K0.000
G1 X123.075 Y-64.077 Z-1.200
G3 X124.316 Y-64.620 Z-1.200 I0.789 J0.113 K0.000
G3 X123.411 Y-63.308 Z-1.200 I-0.453 J0.656 K0.000
G3 X123.075 Y-64.077 Z-1.200 I0.453 J-0.656 K0.000
G1 X123.075 Y-64.077 Z-1.300
G3 X124.316 Y-64.620 Z-1.300 I0.789 J0.113 K0.000
G3 X123.411 Y-63.308 Z-1.300 I-0.453 J0.656 K0.000
G3 X123.075 Y-64.077 Z-1.300 I0.453 J-0.656 K0.000
G1 X123.075 Y-64.077 Z-1.400
G3 X124.316 Y-64.620 Z-1.400 I0.789 J0.113 K0.000
G3 X123.411 Y-63.308 Z-1.400 I-0.453 J0.656 K0.000
G3 X123.075 Y-64.077 Z-1.400 I0.453 J-0.656 K0.000
G1 X123.075 Y-64.077 Z-1.500
G3 X124.316 Y-64.620 Z-1.500 I0.789 J0.113 K0.000
G3 X123.411 Y-63.308 Z-1.500 I-0.453 J0.656 K0.000
G3 X123.075 Y-64.077 Z-1.500 I0.453 J-0.656 K0.000
G1 X123.075 Y-64.077 Z-1.600
G3 X124.316 Y-64.620 Z-1.600 I0.789 J0.113 K0.000
G3 X123.411 Y-63.308 Z-1.600 I-0.453 J0.656 K0.000
G3 X123.075 Y-64.077 Z-1.600 I0.453 J-0.656 K0.000
G1 X123.075 Y-64.077 Z-1.700
G3 X124.316 Y-64.620 Z-1.700 I0.789 J0.113 K0.000
G3 X123.411 Y-63.308 Z-1.700 I-0.453 J0.656 K0.000
G3 X123.075 Y-64.077 Z-1.700 I0.453 J-0.656 K0.000
G1 X123.075 Y-64.077 Z-1.800
G3 X124.316 Y-64.620 Z-1.800 I0.789 J0.113 K0.000
G3 X123.411 Y-63.308 Z-1.800 I-0.453 J0.656 K0.000
G3 X123.075 Y-64.077 Z-1.800 I0.453 J-0.656 K0.000
G1 X123.075 Y-64.077 Z-1.900
G3 X124.316 Y-64.620 Z-1.900 I0.789 J0.113 K0.000
G3 X123.411 Y-63.308 Z-1.900 I-0.453 J0.656 K0.000
G3 X123.075 Y-64.077 Z-1.900 I0.453 J-0.656 K0.000
G1 X123.075 Y-64.077 Z-2.000
G3 X124.316 Y-64.620 Z-2.000 I0.789 J0.113 K0.000
G3 X123.411 Y-63.308 Z-2.000 I-0.453 J0.656 K0.000
G3 X123.075 Y-64.077 Z-2.000 I0.453 J-0.656 K0.000
G1 X123.075 Y-64.077 Z-2.100
G3 X124.316 Y-64.620 Z-2.100 I0.789 J0.113 K0.000
G3 X123.411 Y-63.308 Z-2.100 I-0.453 J0.656 K0.000
G3 X123.075 Y-64.077 Z-2.100 I0.453 J-0.656 K0.000
G1 X123.075 Y-64.077 Z-2.200
G3 X124.316 Y-64.620 Z-2.200 I0.789 J0.113 K0.000
G3 X123.411 Y-63.308 Z-2.200 I-0.453 J0.656 K0.000
G3 X123.075 Y-64.077 Z-2.200 I0.453 J-0.656 K0.000
G1 X123.075 Y-64.077 Z-2.300
G3 X124.316 Y-64.620 Z-2.300 I0.789 J0.113 K0.000
G3 X123.411 Y-63.308 Z-2.300 I-0.453 J0.656 K0.000
G3 X123.075 Y-64.077 Z-2.300 I0.453 J-0.656 K0.000
G1 X123.075 Y-64.077 Z-2.400
G3 X124.316 Y-64.620 Z-2.400 I0.789 J0.113 K0.000
G3 X123.411 Y-63.308 Z-2.400 I-0.453 J0.656 K0.000
G3 X123.075 Y-64.077 Z-2.400 I0.453 J-0.656 K0.000
G0 Z5.000
G0 Z5.000
G0 X123.075 Y-64.077
G0 X123.847 Y-26.561
G0 X123.847 Y-26.561 Z3.000
G1 X123.847 Y-26.561 Z-0.100
G3 X124.316 Y-26.420 Z-0.100 I0.016 J0.797 K0.000
G3 X123.411 Y-25.108 Z-0.100 I-0.453 J0.656 K0.000
G3 X123.847 Y-26.561 Z-0.100 I0.453 J-0.656 K0.000
G1 X123.847 Y-26.561 Z-0.200
G3 X124.316 Y-26.420 Z-0.200 I0.016 J0.797 K0.000
G3 X123.411 Y-25.108 Z-0.200 I-0.453 J0.656 K0.000
G3 X123.847 Y-26.561 Z-0.200 I0.453 J-0.656 K0.000
G1 X123.847 Y-26.561 Z-0.300
G3 X124.316 Y-26.420 Z-0.300 I0.016 J0.797 K0.000
G3 X123.411 Y-25.108 Z-0.300 I-0.453 J0.656 K0.000
G3 X123.847 Y-26.561 Z-0.300 I0.453 J-0.656 K0.000
G1 X123.847 Y-26.561 Z-0.400
G3 X124.316 Y-26.420 Z-0.400 I0.016 J0.797 K0.000
G3 X123.411 Y-25.108 Z-0.400 I-0.453 J0.656 K0.000
G3 X123.847 Y-26.561 Z-0.400 I0.453 J-0.656 K0.000
G1 X123.847 Y-26.561 Z-0.500
G3 X124.316 Y-26.420 Z-0.500 I0.016 J0.797 K0.000
G3 X123.411 Y-25.108 Z-0.500 I-0.453 J0.656 K0.000
G3 X123.847 Y-26.561 Z-0.500 I0.453 J-0.656 K0.000
G1 X123.847 Y-26.561 Z-0.600
G3 X124.316 Y-26.420 Z-0.600 I0.016 J0.797 K0.000
G3 X123.411 Y-25.108 Z-0.600 I-0.453 J0.656 K0.000
G3 X123.847 Y-26.561 Z-0.600 I0.453 J-0.656 K0.000
G1 X123.847 Y-26.561 Z-0.700
G3 X124.316 Y-26.420 Z-0.700 I0.016 J0.797 K0.000
G3 X123.411 Y-25.108 Z-0.700 I-0.453 J0.656 K0.000
G3 X123.847 Y-26.561 Z-0.700 I0.453 J-0.656 K0.000
G1 X123.847 Y-26.561 Z-0.800
G3 X124.316 Y-26.420 Z-0.800 I0.016 J0.797 K0.000
G3 X123.411 Y-25.108 Z-0.800 I-0.453 J0.656 K0.000
G3 X123.847 Y-26.561 Z-0.800 I0.453 J-0.656 K0.000
G1 X123.847 Y-26.561 Z-0.900
G3 X124.316 Y-26.420 Z-0.900 I0.016 J0.797 K0.000
G3 X123.411 Y-25.108 Z-0.900 I-0.453 J0.656 K0.000
G3 X123.847 Y-26.561 Z-0.900 I0.453 J-0.656 K0.000
G1 X123.847 Y-26.561 Z-1.000
G3 X124.316 Y-26.420 Z-1.000 I0.016 J0.797 K0.000
G3 X123.411 Y-25.108 Z-1.000 I-0.453 J0.656 K0.000
G3 X123.847 Y-26.561 Z-1.000 I0.453 J-0.656 K0.000
G1 X123.847 Y-26.561 Z-1.100
G3 X124.316 Y-26.420 Z-1.100 I0.016 J0.797 K0.000
G3 X123.411 Y-25.108 Z-1.100 I-0.453 J0.656 K0.000
G3 X123.847 Y-26.561 Z-1.100 I0.453 J-0.656 K0.000
G1 X123.847 Y-26.561 Z-1.200
G3 X124.316 Y-26.420 Z-1.200 I0.016 J0.797 K0.000
G3 X123.411 Y-25.108 Z-1.200 I-0.453 J0.656 K0.000
G3 X123.847 Y-26.561 Z-1.200 I0.453 J-0.656 K0.000
G1 X123.847 Y-26.561 Z-1.300
G3 X124.316 Y-26.420 Z-1.300 I0.016 J0.797 K0.000
G3 X123.411 Y-25.108 Z-1.300 I-0.453 J0.656 K0.000
G3 X123.847 Y-26.561 Z-1.300 I0.453 J-0.656 K0.000
G1 X123.847 Y-26.561 Z-1.400
G3 X124.316 Y-26.420 Z-1.400 I0.016 J0.797 K0.000
G3 X123.411 Y-25.108 Z-1.400 I-0.453 J0.656 K0.000
G3 X123.847 Y-26.561 Z-1.400 I0.453 J-0.656 K0.000
G1 X123.847 Y-26.561 Z-1.500
G3 X124.316 Y-26.420 Z-1.500 I0.016 J0.797 K0.000
G3 X123.411 Y-25.108 Z-1.500 I-0.453 J0.656 K0.000
G3 X123.847 Y-26.561 Z-1.500 I0.453 J-0.656 K0.000
G1 X123.847 Y-26.561 Z-1.600
G3 X124.316 Y-26.420 Z-1.600 I0.016 J0.797 K0.000
G3 X123.411 Y-25.108 Z-1.600 I-0.453 J0.656 K0.000
G3 X123.847 Y-26.561 Z-1.600 I0.453 J-0.656 K0.000
G1 X123.847 Y-26.561 Z-1.700
G3 X124.316 Y-26.420 Z-1.700 I0.016 J0.797 K0.000
G3 X123.411 Y-25.108 Z-1.700 I-0.453 J0.656 K0.000
G3 X123.847 Y-26.561 Z-1.700 I0.453 J-0.656 K0.000
G1 X123.847 Y-26.561 Z-1.800
G3 X124.316 Y-26.420 Z-1.800 I0.016 J0.797 K0.000
G3 X123.411 Y-25.108 Z-1.800 I-0.453 J0.656 K0.000
G3 X123.847 Y-26.561 Z-1.800 I0.453 J-0.656 K0.000
G1 X123.847 Y-26.561 Z-1.900
G3 X124.316 Y-26.420 Z-1.900 I0.016 J0.797 K0.000
G3 X123.411 Y-25.108 Z-1.900 I-0.453 J0.656 K0.000
G3 X123.847 Y-26.561 Z-1.900 I0.453 J-0.656 K0.000
G1 X123.847 Y-26.561 Z-2.000
G3 X124.316 Y-26.420 Z-2.000 I0.016 J0.797 K0.000
G3 X123.411 Y-25.108 Z-2.000 I-0.453 J0.656 K0.000
G3 X123.847 Y-26.561 Z-2.000 I0.453 J-0.656 K0.000
G1 X123.847 Y-26.561 Z-2.100
G3 X124.316 Y-26.420 Z-2.100 I0.016 J0.797 K0.000
G3 X123.411 Y-25.108 Z-2.100 I-0.453 J0.656 K0.000
G3 X123.847 Y-26.561 Z-2.100 I0.453 J-0.656 K0.000
G1 X123.847 Y-26.561 Z-2.200
G3 X124.316 Y-26.420 Z-2.200 I0.016 J0.797 K0.000
G3 X123.411 Y-25.108 Z-2.200 I-0.453 J0.656 K0.000
G3 X123.847 Y-26.561 Z-2.200 I0.453 J-0.656 K0.000
G1 X123.847 Y-26.561 Z-2.300
G3 X124.316 Y-26.420 Z-2.300 I0.016 J0.797 K0.000
G3 X123.411 Y-25.108 Z-2.300 I-0.453 J0.656 K0.000
G3 X123.847 Y-26.561 Z-2.300 I0.453 J-0.656 K0.000
G1 X123.847 Y-26.561 Z-2.400
G3 X124.316 Y-26.420 Z-2.400 I0.016 J0.797 K0.000
G3 X123.411 Y-25.108 Z-2.400 I-0.453 J0.656 K0.000
G3 X123.847 Y-26.561 Z-2.400 I0.453 J-0.656 K0.000
G0 Z5.000
G0 Z5.000
(Finish operation: Screwholes)
(Begin postamble)
M5
G17 G90
M2
