(Exported by FreeCAD)
(Post Processor: grbl_post)
(Output Time:2021-05-28 23:46:30.729652)
(Begin preamble)
G17 G90
G21
(Begin operation: Fixture)
(Path: Fixture)
G54
G0 Z5.000
(Finish operation: Fixture)
(Begin operation: Keyholes)
(Path: Keyholes)
(Keyholes)
(Compensated Tool Path. Diameter: 3.17)
G0 Z5.000
G0 X43.978 Y-8.499
G0 Z3.000
G1 X43.978 Y-8.499 Z-0.250
G1 X33.148 Y-8.499 Z-0.250
G1 X33.148 Y-19.329 Z-0.250
G1 X43.978 Y-19.329 Z-0.250
G1 X43.978 Y-8.499 Z-0.250
G1 X43.978 Y-8.499 Z-0.500
G1 X33.148 Y-8.499 Z-0.500
G1 X33.148 Y-19.329 Z-0.500
G1 X43.978 Y-19.329 Z-0.500
G1 X43.978 Y-8.499 Z-0.500
G1 X43.978 Y-8.499 Z-0.750
G1 X33.148 Y-8.499 Z-0.750
G1 X33.148 Y-19.329 Z-0.750
G1 X43.978 Y-19.329 Z-0.750
G1 X43.978 Y-8.499 Z-0.750
G1 X43.978 Y-8.499 Z-1.000
G1 X33.148 Y-8.499 Z-1.000
G1 X33.148 Y-19.329 Z-1.000
G1 X43.978 Y-19.329 Z-1.000
G1 X43.978 Y-8.499 Z-1.000
G1 X43.978 Y-8.499 Z-1.250
G1 X33.148 Y-8.499 Z-1.250
G1 X33.148 Y-19.329 Z-1.250
G1 X43.978 Y-19.329 Z-1.250
G1 X43.978 Y-8.499 Z-1.250
G1 X43.978 Y-8.499 Z-1.500
G1 X33.148 Y-8.499 Z-1.500
G1 X33.148 Y-19.329 Z-1.500
G1 X43.978 Y-19.329 Z-1.500
G1 X43.978 Y-8.499 Z-1.500
G1 X43.978 Y-8.499 Z-1.750
G1 X33.148 Y-8.499 Z-1.750
G1 X33.148 Y-19.329 Z-1.750
G1 X43.978 Y-19.329 Z-1.750
G1 X43.978 Y-8.499 Z-1.750
G1 X43.978 Y-8.499 Z-2.000
G1 X33.148 Y-8.499 Z-2.000
G1 X33.148 Y-19.329 Z-2.000
G1 X43.978 Y-19.329 Z-2.000
G1 X43.978 Y-8.499 Z-2.000
G1 X43.978 Y-8.499 Z-2.200
G1 X33.148 Y-8.499 Z-2.200
G1 X33.148 Y-19.329 Z-2.200
G1 X43.978 Y-19.329 Z-2.200
G1 X43.978 Y-8.499 Z-2.200
G0 Z5.000
G0 Z5.000
G0 X43.978 Y-8.499
G0 X43.979 Y-27.600
G0 X43.979 Y-27.600 Z3.000
G1 X43.979 Y-27.600 Z-0.250
G1 X33.149 Y-27.600 Z-0.250
G1 X33.149 Y-38.430 Z-0.250
G1 X43.979 Y-38.430 Z-0.250
G1 X43.979 Y-27.600 Z-0.250
G1 X43.979 Y-27.600 Z-0.500
G1 X33.149 Y-27.600 Z-0.500
G1 X33.149 Y-38.430 Z-0.500
G1 X43.979 Y-38.430 Z-0.500
G1 X43.979 Y-27.600 Z-0.500
G1 X43.979 Y-27.600 Z-0.750
G1 X33.149 Y-27.600 Z-0.750
G1 X33.149 Y-38.430 Z-0.750
G1 X43.979 Y-38.430 Z-0.750
G1 X43.979 Y-27.600 Z-0.750
G1 X43.979 Y-27.600 Z-1.000
G1 X33.149 Y-27.600 Z-1.000
G1 X33.149 Y-38.430 Z-1.000
G1 X43.979 Y-38.430 Z-1.000
G1 X43.979 Y-27.600 Z-1.000
G1 X43.979 Y-27.600 Z-1.250
G1 X33.149 Y-27.600 Z-1.250
G1 X33.149 Y-38.430 Z-1.250
G1 X43.979 Y-38.430 Z-1.250
G1 X43.979 Y-27.600 Z-1.250
G1 X43.979 Y-27.600 Z-1.500
G1 X33.149 Y-27.600 Z-1.500
G1 X33.149 Y-38.430 Z-1.500
G1 X43.979 Y-38.430 Z-1.500
G1 X43.979 Y-27.600 Z-1.500
G1 X43.979 Y-27.600 Z-1.750
G1 X33.149 Y-27.600 Z-1.750
G1 X33.149 Y-38.430 Z-1.750
G1 X43.979 Y-38.430 Z-1.750
G1 X43.979 Y-27.600 Z-1.750
G1 X43.979 Y-27.600 Z-2.000
G1 X33.149 Y-27.600 Z-2.000
G1 X33.149 Y-38.430 Z-2.000
G1 X43.979 Y-38.430 Z-2.000
G1 X43.979 Y-27.600 Z-2.000
G1 X43.979 Y-27.600 Z-2.200
G1 X33.149 Y-27.600 Z-2.200
G1 X33.149 Y-38.430 Z-2.200
G1 X43.979 Y-38.430 Z-2.200
G1 X43.979 Y-27.600 Z-2.200
G0 Z5.000
G0 Z5.000
G0 X43.979 Y-27.600
G0 X43.978 Y-46.597
G0 X43.978 Y-46.597 Z3.000
G1 X43.978 Y-46.597 Z-0.250
G1 X33.148 Y-46.597 Z-0.250
G1 X33.148 Y-57.427 Z-0.250
G1 X43.978 Y-57.427 Z-0.250
G1 X43.978 Y-46.597 Z-0.250
G1 X43.978 Y-46.597 Z-0.500
G1 X33.148 Y-46.597 Z-0.500
G1 X33.148 Y-57.427 Z-0.500
G1 X43.978 Y-57.427 Z-0.500
G1 X43.978 Y-46.597 Z-0.500
G1 X43.978 Y-46.597 Z-0.750
G1 X33.148 Y-46.597 Z-0.750
G1 X33.148 Y-57.427 Z-0.750
G1 X43.978 Y-57.427 Z-0.750
G1 X43.978 Y-46.597 Z-0.750
G1 X43.978 Y-46.597 Z-1.000
G1 X33.148 Y-46.597 Z-1.000
G1 X33.148 Y-57.427 Z-1.000
G1 X43.978 Y-57.427 Z-1.000
G1 X43.978 Y-46.597 Z-1.000
G1 X43.978 Y-46.597 Z-1.250
G1 X33.148 Y-46.597 Z-1.250
G1 X33.148 Y-57.427 Z-1.250
G1 X43.978 Y-57.427 Z-1.250
G1 X43.978 Y-46.597 Z-1.250
G1 X43.978 Y-46.597 Z-1.500
G1 X33.148 Y-46.597 Z-1.500
G1 X33.148 Y-57.427 Z-1.500
G1 X43.978 Y-57.427 Z-1.500
G1 X43.978 Y-46.597 Z-1.500
G1 X43.978 Y-46.597 Z-1.750
G1 X33.148 Y-46.597 Z-1.750
G1 X33.148 Y-57.427 Z-1.750
G1 X43.978 Y-57.427 Z-1.750
G1 X43.978 Y-46.597 Z-1.750
G1 X43.978 Y-46.597 Z-2.000
G1 X33.148 Y-46.597 Z-2.000
G1 X33.148 Y-57.427 Z-2.000
G1 X43.978 Y-57.427 Z-2.000
G1 X43.978 Y-46.597 Z-2.000
G1 X43.978 Y-46.597 Z-2.200
G1 X33.148 Y-46.597 Z-2.200
G1 X33.148 Y-57.427 Z-2.200
G1 X43.978 Y-57.427 Z-2.200
G1 X43.978 Y-46.597 Z-2.200
G0 Z5.000
G0 Z5.000
G0 X43.978 Y-46.597
G0 Y-65.600
G0 Y-65.600 Z3.000
G1 X43.978 Y-65.600 Z-0.250
G1 X33.148 Y-65.600 Z-0.250
G1 X33.148 Y-76.430 Z-0.250
G1 X43.978 Y-76.430 Z-0.250
G1 X43.978 Y-65.600 Z-0.250
G1 X43.978 Y-65.600 Z-0.500
G1 X33.148 Y-65.600 Z-0.500
G1 X33.148 Y-76.430 Z-0.500
G1 X43.978 Y-76.430 Z-0.500
G1 X43.978 Y-65.600 Z-0.500
G1 X43.978 Y-65.600 Z-0.750
G1 X33.148 Y-65.600 Z-0.750
G1 X33.148 Y-76.430 Z-0.750
G1 X43.978 Y-76.430 Z-0.750
G1 X43.978 Y-65.600 Z-0.750
G1 X43.978 Y-65.600 Z-1.000
G1 X33.148 Y-65.600 Z-1.000
G1 X33.148 Y-76.430 Z-1.000
G1 X43.978 Y-76.430 Z-1.000
G1 X43.978 Y-65.600 Z-1.000
G1 X43.978 Y-65.600 Z-1.250
G1 X33.148 Y-65.600 Z-1.250
G1 X33.148 Y-76.430 Z-1.250
G1 X43.978 Y-76.430 Z-1.250
G1 X43.978 Y-65.600 Z-1.250
G1 X43.978 Y-65.600 Z-1.500
G1 X33.148 Y-65.600 Z-1.500
G1 X33.148 Y-76.430 Z-1.500
G1 X43.978 Y-76.430 Z-1.500
G1 X43.978 Y-65.600 Z-1.500
G1 X43.978 Y-65.600 Z-1.750
G1 X33.148 Y-65.600 Z-1.750
G1 X33.148 Y-76.430 Z-1.750
G1 X43.978 Y-76.430 Z-1.750
G1 X43.978 Y-65.600 Z-1.750
G1 X43.978 Y-65.600 Z-2.000
G1 X33.148 Y-65.600 Z-2.000
G1 X33.148 Y-76.430 Z-2.000
G1 X43.978 Y-76.430 Z-2.000
G1 X43.978 Y-65.600 Z-2.000
G1 X43.978 Y-65.600 Z-2.200
G1 X33.148 Y-65.600 Z-2.200
G1 X33.148 Y-76.430 Z-2.200
G1 X43.978 Y-76.430 Z-2.200
G1 X43.978 Y-65.600 Z-2.200
G0 Z5.000
G0 Z5.000
G0 X43.978 Y-65.600
G0 X52.149
G0 X52.149 Z3.000
G1 X52.149 Y-65.600 Z-0.250
G1 X52.149 Y-74.129 Z-0.250
G1 X62.979 Y-74.129 Z-0.250
G1 X62.979 Y-63.298 Z-0.250
G1 X52.149 Y-63.298 Z-0.250
G1 X52.149 Y-65.600 Z-0.250
G1 X52.149 Y-65.600 Z-0.500
G1 X52.149 Y-74.129 Z-0.500
G1 X62.979 Y-74.129 Z-0.500
G1 X62.979 Y-63.298 Z-0.500
G1 X52.149 Y-63.298 Z-0.500
G1 X52.149 Y-65.600 Z-0.500
G1 X52.149 Y-65.600 Z-0.750
G1 X52.149 Y-74.129 Z-0.750
G1 X62.979 Y-74.129 Z-0.750
G1 X62.979 Y-63.298 Z-0.750
G1 X52.149 Y-63.298 Z-0.750
G1 X52.149 Y-65.600 Z-0.750
G1 X52.149 Y-65.600 Z-1.000
G1 X52.149 Y-74.129 Z-1.000
G1 X62.979 Y-74.129 Z-1.000
G1 X62.979 Y-63.298 Z-1.000
G1 X52.149 Y-63.298 Z-1.000
G1 X52.149 Y-65.600 Z-1.000
G1 X52.149 Y-65.600 Z-1.250
G1 X52.149 Y-74.129 Z-1.250
G1 X62.979 Y-74.129 Z-1.250
G1 X62.979 Y-63.298 Z-1.250
G1 X52.149 Y-63.298 Z-1.250
G1 X52.149 Y-65.600 Z-1.250
G1 X52.149 Y-65.600 Z-1.500
G1 X52.149 Y-74.129 Z-1.500
G1 X62.979 Y-74.129 Z-1.500
G1 X62.979 Y-63.298 Z-1.500
G1 X52.149 Y-63.298 Z-1.500
G1 X52.149 Y-65.600 Z-1.500
G1 X52.149 Y-65.600 Z-1.750
G1 X52.149 Y-74.129 Z-1.750
G1 X62.979 Y-74.129 Z-1.750
G1 X62.979 Y-63.298 Z-1.750
G1 X52.149 Y-63.298 Z-1.750
G1 X52.149 Y-65.600 Z-1.750
G1 X52.149 Y-65.600 Z-2.000
G1 X52.149 Y-74.129 Z-2.000
G1 X62.979 Y-74.129 Z-2.000
G1 X62.979 Y-63.298 Z-2.000
G1 X52.149 Y-63.298 Z-2.000
G1 X52.149 Y-65.600 Z-2.000
G1 X52.149 Y-65.600 Z-2.200
G1 X52.149 Y-74.129 Z-2.200
G1 X62.979 Y-74.129 Z-2.200
G1 X62.979 Y-63.298 Z-2.200
G1 X52.149 Y-63.298 Z-2.200
G1 X52.149 Y-65.600 Z-2.200
G0 Z5.000
G0 Z5.000
G0 X52.149 Y-65.600
G0 Y-55.030
G0 Y-55.030 Z3.000
G1 X52.149 Y-55.030 Z-0.250
G1 X62.979 Y-55.030 Z-0.250
G1 X62.979 Y-44.200 Z-0.250
G1 X52.149 Y-44.200 Z-0.250
G1 X52.149 Y-55.030 Z-0.250
G1 X52.149 Y-55.030 Z-0.500
G1 X62.979 Y-55.030 Z-0.500
G1 X62.979 Y-44.200 Z-0.500
G1 X52.149 Y-44.200 Z-0.500
G1 X52.149 Y-55.030 Z-0.500
G1 X52.149 Y-55.030 Z-0.750
G1 X62.979 Y-55.030 Z-0.750
G1 X62.979 Y-44.200 Z-0.750
G1 X52.149 Y-44.200 Z-0.750
G1 X52.149 Y-55.030 Z-0.750
G1 X52.149 Y-55.030 Z-1.000
G1 X62.979 Y-55.030 Z-1.000
G1 X62.979 Y-44.200 Z-1.000
G1 X52.149 Y-44.200 Z-1.000
G1 X52.149 Y-55.030 Z-1.000
G1 X52.149 Y-55.030 Z-1.250
G1 X62.979 Y-55.030 Z-1.250
G1 X62.979 Y-44.200 Z-1.250
G1 X52.149 Y-44.200 Z-1.250
G1 X52.149 Y-55.030 Z-1.250
G1 X52.149 Y-55.030 Z-1.500
G1 X62.979 Y-55.030 Z-1.500
G1 X62.979 Y-44.200 Z-1.500
G1 X52.149 Y-44.200 Z-1.500
G1 X52.149 Y-55.030 Z-1.500
G1 X52.149 Y-55.030 Z-1.750
G1 X62.979 Y-55.030 Z-1.750
G1 X62.979 Y-44.200 Z-1.750
G1 X52.149 Y-44.200 Z-1.750
G1 X52.149 Y-55.030 Z-1.750
G1 X52.149 Y-55.030 Z-2.000
G1 X62.979 Y-55.030 Z-2.000
G1 X62.979 Y-44.200 Z-2.000
G1 X52.149 Y-44.200 Z-2.000
G1 X52.149 Y-55.030 Z-2.000
G1 X52.149 Y-55.030 Z-2.200
G1 X62.979 Y-55.030 Z-2.200
G1 X62.979 Y-44.200 Z-2.200
G1 X52.149 Y-44.200 Z-2.200
G1 X52.149 Y-55.030 Z-2.200
G0 Z5.000
G0 Z5.000
G0 X52.149 Y-55.030
G0 X52.148 Y-36.029
G0 X52.148 Y-36.029 Z3.000
G1 X52.148 Y-36.029 Z-0.250
G1 X62.978 Y-36.029 Z-0.250
G1 X62.978 Y-25.199 Z-0.250
G1 X52.148 Y-25.199 Z-0.250
G1 X52.148 Y-36.029 Z-0.250
G1 X52.148 Y-36.029 Z-0.500
G1 X62.978 Y-36.029 Z-0.500
G1 X62.978 Y-25.199 Z-0.500
G1 X52.148 Y-25.199 Z-0.500
G1 X52.148 Y-36.029 Z-0.500
G1 X52.148 Y-36.029 Z-0.750
G1 X62.978 Y-36.029 Z-0.750
G1 X62.978 Y-25.199 Z-0.750
G1 X52.148 Y-25.199 Z-0.750
G1 X52.148 Y-36.029 Z-0.750
G1 X52.148 Y-36.029 Z-1.000
G1 X62.978 Y-36.029 Z-1.000
G1 X62.978 Y-25.199 Z-1.000
G1 X52.148 Y-25.199 Z-1.000
G1 X52.148 Y-36.029 Z-1.000
G1 X52.148 Y-36.029 Z-1.250
G1 X62.978 Y-36.029 Z-1.250
G1 X62.978 Y-25.199 Z-1.250
G1 X52.148 Y-25.199 Z-1.250
G1 X52.148 Y-36.029 Z-1.250
G1 X52.148 Y-36.029 Z-1.500
G1 X62.978 Y-36.029 Z-1.500
G1 X62.978 Y-25.199 Z-1.500
G1 X52.148 Y-25.199 Z-1.500
G1 X52.148 Y-36.029 Z-1.500
G1 X52.148 Y-36.029 Z-1.750
G1 X62.978 Y-36.029 Z-1.750
G1 X62.978 Y-25.199 Z-1.750
G1 X52.148 Y-25.199 Z-1.750
G1 X52.148 Y-36.029 Z-1.750
G1 X52.148 Y-36.029 Z-2.000
G1 X62.978 Y-36.029 Z-2.000
G1 X62.978 Y-25.199 Z-2.000
G1 X52.148 Y-25.199 Z-2.000
G1 X52.148 Y-36.029 Z-2.000
G1 X52.148 Y-36.029 Z-2.200
G1 X62.978 Y-36.029 Z-2.200
G1 X62.978 Y-25.199 Z-2.200
G1 X52.148 Y-25.199 Z-2.200
G1 X52.148 Y-36.029 Z-2.200
G0 Z5.000
G0 Z5.000
G0 X52.148 Y-36.029
G0 Y-16.928
G0 Y-16.928 Z3.000
G1 X52.148 Y-16.928 Z-0.250
G1 X62.978 Y-16.928 Z-0.250
G1 X62.978 Y-6.098 Z-0.250
G1 X52.148 Y-6.098 Z-0.250
G1 X52.148 Y-16.928 Z-0.250
G1 X52.148 Y-16.928 Z-0.500
G1 X62.978 Y-16.928 Z-0.500
G1 X62.978 Y-6.098 Z-0.500
G1 X52.148 Y-6.098 Z-0.500
G1 X52.148 Y-16.928 Z-0.500
G1 X52.148 Y-16.928 Z-0.750
G1 X62.978 Y-16.928 Z-0.750
G1 X62.978 Y-6.098 Z-0.750
G1 X52.148 Y-6.098 Z-0.750
G1 X52.148 Y-16.928 Z-0.750
G1 X52.148 Y-16.928 Z-1.000
G1 X62.978 Y-16.928 Z-1.000
G1 X62.978 Y-6.098 Z-1.000
G1 X52.148 Y-6.098 Z-1.000
G1 X52.148 Y-16.928 Z-1.000
G1 X52.148 Y-16.928 Z-1.250
G1 X62.978 Y-16.928 Z-1.250
G1 X62.978 Y-6.098 Z-1.250
G1 X52.148 Y-6.098 Z-1.250
G1 X52.148 Y-16.928 Z-1.250
G1 X52.148 Y-16.928 Z-1.500
G1 X62.978 Y-16.928 Z-1.500
G1 X62.978 Y-6.098 Z-1.500
G1 X52.148 Y-6.098 Z-1.500
G1 X52.148 Y-16.928 Z-1.500
G1 X52.148 Y-16.928 Z-1.750
G1 X62.978 Y-16.928 Z-1.750
G1 X62.978 Y-6.098 Z-1.750
G1 X52.148 Y-6.098 Z-1.750
G1 X52.148 Y-16.928 Z-1.750
G1 X52.148 Y-16.928 Z-2.000
G1 X62.978 Y-16.928 Z-2.000
G1 X62.978 Y-6.098 Z-2.000
G1 X52.148 Y-6.098 Z-2.000
G1 X52.148 Y-16.928 Z-2.000
G1 X52.148 Y-16.928 Z-2.200
G1 X62.978 Y-16.928 Z-2.200
G1 X62.978 Y-6.098 Z-2.200
G1 X52.148 Y-6.098 Z-2.200
G1 X52.148 Y-16.928 Z-2.200
G0 Z5.000
G0 Z5.000
G0 X52.148 Y-16.928
G0 X71.178 Y-15.539
G0 X71.178 Y-15.539 Z3.000
G1 X71.178 Y-15.539 Z-0.250
G1 X82.008 Y-15.539 Z-0.250
G1 X82.008 Y-4.709 Z-0.250
G1 X71.178 Y-4.709 Z-0.250
G1 X71.178 Y-15.539 Z-0.250
G1 X71.178 Y-15.539 Z-0.500
G1 X82.008 Y-15.539 Z-0.500
G1 X82.008 Y-4.709 Z-0.500
G1 X71.178 Y-4.709 Z-0.500
G1 X71.178 Y-15.539 Z-0.500
G1 X71.178 Y-15.539 Z-0.750
G1 X82.008 Y-15.539 Z-0.750
G1 X82.008 Y-4.709 Z-0.750
G1 X71.178 Y-4.709 Z-0.750
G1 X71.178 Y-15.539 Z-0.750
G1 X71.178 Y-15.539 Z-1.000
G1 X82.008 Y-15.539 Z-1.000
G1 X82.008 Y-4.709 Z-1.000
G1 X71.178 Y-4.709 Z-1.000
G1 X71.178 Y-15.539 Z-1.000
G1 X71.178 Y-15.539 Z-1.250
G1 X82.008 Y-15.539 Z-1.250
G1 X82.008 Y-4.709 Z-1.250
G1 X71.178 Y-4.709 Z-1.250
G1 X71.178 Y-15.539 Z-1.250
G1 X71.178 Y-15.539 Z-1.500
G1 X82.008 Y-15.539 Z-1.500
G1 X82.008 Y-4.709 Z-1.500
G1 X71.178 Y-4.709 Z-1.500
G1 X71.178 Y-15.539 Z-1.500
G1 X71.178 Y-15.539 Z-1.750
G1 X82.008 Y-15.539 Z-1.750
G1 X82.008 Y-4.709 Z-1.750
G1 X71.178 Y-4.709 Z-1.750
G1 X71.178 Y-15.539 Z-1.750
G1 X71.178 Y-15.539 Z-2.000
G1 X82.008 Y-15.539 Z-2.000
G1 X82.008 Y-4.709 Z-2.000
G1 X71.178 Y-4.709 Z-2.000
G1 X71.178 Y-15.539 Z-2.000
G1 X71.178 Y-15.539 Z-2.200
G1 X82.008 Y-15.539 Z-2.200
G1 X82.008 Y-4.709 Z-2.200
G1 X71.178 Y-4.709 Z-2.200
G1 X71.178 Y-15.539 Z-2.200
G0 Z5.000
G0 Z5.000
G0 X71.178 Y-15.539
G0 X71.249 Y-23.799
G0 X71.249 Y-23.799 Z3.000
G1 X71.249 Y-23.799 Z-0.250
G1 X71.249 Y-34.629 Z-0.250
G1 X82.079 Y-34.629 Z-0.250
G1 X82.079 Y-23.799 Z-0.250
G1 X71.249 Y-23.799 Z-0.250
G1 X71.249 Y-23.799 Z-0.500
G1 X71.249 Y-34.629 Z-0.500
G1 X82.079 Y-34.629 Z-0.500
G1 X82.079 Y-23.799 Z-0.500
G1 X71.249 Y-23.799 Z-0.500
G1 X71.249 Y-23.799 Z-0.750
G1 X71.249 Y-34.629 Z-0.750
G1 X82.079 Y-34.629 Z-0.750
G1 X82.079 Y-23.799 Z-0.750
G1 X71.249 Y-23.799 Z-0.750
G1 X71.249 Y-23.799 Z-1.000
G1 X71.249 Y-34.629 Z-1.000
G1 X82.079 Y-34.629 Z-1.000
G1 X82.079 Y-23.799 Z-1.000
G1 X71.249 Y-23.799 Z-1.000
G1 X71.249 Y-23.799 Z-1.250
G1 X71.249 Y-34.629 Z-1.250
G1 X82.079 Y-34.629 Z-1.250
G1 X82.079 Y-23.799 Z-1.250
G1 X71.249 Y-23.799 Z-1.250
G1 X71.249 Y-23.799 Z-1.500
G1 X71.249 Y-34.629 Z-1.500
G1 X82.079 Y-34.629 Z-1.500
G1 X82.079 Y-23.799 Z-1.500
G1 X71.249 Y-23.799 Z-1.500
G1 X71.249 Y-23.799 Z-1.750
G1 X71.249 Y-34.629 Z-1.750
G1 X82.079 Y-34.629 Z-1.750
G1 X82.079 Y-23.799 Z-1.750
G1 X71.249 Y-23.799 Z-1.750
G1 X71.249 Y-23.799 Z-2.000
G1 X71.249 Y-34.629 Z-2.000
G1 X82.079 Y-34.629 Z-2.000
G1 X82.079 Y-23.799 Z-2.000
G1 X71.249 Y-23.799 Z-2.000
G1 X71.249 Y-23.799 Z-2.200
G1 X71.249 Y-34.629 Z-2.200
G1 X82.079 Y-34.629 Z-2.200
G1 X82.079 Y-23.799 Z-2.200
G1 X71.249 Y-23.799 Z-2.200
G0 Z5.000
G0 Z5.000
G0 X71.249 Y-23.799
G0 Y-42.898
G0 Y-42.898 Z3.000
G1 X71.249 Y-42.898 Z-0.250
G1 X71.249 Y-53.728 Z-0.250
G1 X82.079 Y-53.728 Z-0.250
G1 X82.079 Y-42.898 Z-0.250
G1 X71.249 Y-42.898 Z-0.250
G1 X71.249 Y-42.898 Z-0.500
G1 X71.249 Y-53.728 Z-0.500
G1 X82.079 Y-53.728 Z-0.500
G1 X82.079 Y-42.898 Z-0.500
G1 X71.249 Y-42.898 Z-0.500
G1 X71.249 Y-42.898 Z-0.750
G1 X71.249 Y-53.728 Z-0.750
G1 X82.079 Y-53.728 Z-0.750
G1 X82.079 Y-42.898 Z-0.750
G1 X71.249 Y-42.898 Z-0.750
G1 X71.249 Y-42.898 Z-1.000
G1 X71.249 Y-53.728 Z-1.000
G1 X82.079 Y-53.728 Z-1.000
G1 X82.079 Y-42.898 Z-1.000
G1 X71.249 Y-42.898 Z-1.000
G1 X71.249 Y-42.898 Z-1.250
G1 X71.249 Y-53.728 Z-1.250
G1 X82.079 Y-53.728 Z-1.250
G1 X82.079 Y-42.898 Z-1.250
G1 X71.249 Y-42.898 Z-1.250
G1 X71.249 Y-42.898 Z-1.500
G1 X71.249 Y-53.728 Z-1.500
G1 X82.079 Y-53.728 Z-1.500
G1 X82.079 Y-42.898 Z-1.500
G1 X71.249 Y-42.898 Z-1.500
G1 X71.249 Y-42.898 Z-1.750
G1 X71.249 Y-53.728 Z-1.750
G1 X82.079 Y-53.728 Z-1.750
G1 X82.079 Y-42.898 Z-1.750
G1 X71.249 Y-42.898 Z-1.750
G1 X71.249 Y-42.898 Z-2.000
G1 X71.249 Y-53.728 Z-2.000
G1 X82.079 Y-53.728 Z-2.000
G1 X82.079 Y-42.898 Z-2.000
G1 X71.249 Y-42.898 Z-2.000
G1 X71.249 Y-42.898 Z-2.200
G1 X71.249 Y-53.728 Z-2.200
G1 X82.079 Y-53.728 Z-2.200
G1 X82.079 Y-42.898 Z-2.200
G1 X71.249 Y-42.898 Z-2.200
G0 Z5.000
G0 Z5.000
G0 X71.249 Y-42.898
G0 X71.248 Y-61.898
G0 X71.248 Y-61.898 Z3.000
G1 X71.248 Y-61.898 Z-0.250
G1 X71.248 Y-72.728 Z-0.250
G1 X82.078 Y-72.728 Z-0.250
G1 X82.078 Y-61.898 Z-0.250
G1 X71.248 Y-61.898 Z-0.250
G1 X71.248 Y-61.898 Z-0.500
G1 X71.248 Y-72.728 Z-0.500
G1 X82.078 Y-72.728 Z-0.500
G1 X82.078 Y-61.898 Z-0.500
G1 X71.248 Y-61.898 Z-0.500
G1 X71.248 Y-61.898 Z-0.750
G1 X71.248 Y-72.728 Z-0.750
G1 X82.078 Y-72.728 Z-0.750
G1 X82.078 Y-61.898 Z-0.750
G1 X71.248 Y-61.898 Z-0.750
G1 X71.248 Y-61.898 Z-1.000
G1 X71.248 Y-72.728 Z-1.000
G1 X82.078 Y-72.728 Z-1.000
G1 X82.078 Y-61.898 Z-1.000
G1 X71.248 Y-61.898 Z-1.000
G1 X71.248 Y-61.898 Z-1.250
G1 X71.248 Y-72.728 Z-1.250
G1 X82.078 Y-72.728 Z-1.250
G1 X82.078 Y-61.898 Z-1.250
G1 X71.248 Y-61.898 Z-1.250
G1 X71.248 Y-61.898 Z-1.500
G1 X71.248 Y-72.728 Z-1.500
G1 X82.078 Y-72.728 Z-1.500
G1 X82.078 Y-61.898 Z-1.500
G1 X71.248 Y-61.898 Z-1.500
G1 X71.248 Y-61.898 Z-1.750
G1 X71.248 Y-72.728 Z-1.750
G1 X82.078 Y-72.728 Z-1.750
G1 X82.078 Y-61.898 Z-1.750
G1 X71.248 Y-61.898 Z-1.750
G1 X71.248 Y-61.898 Z-2.000
G1 X71.248 Y-72.728 Z-2.000
G1 X82.078 Y-72.728 Z-2.000
G1 X82.078 Y-61.898 Z-2.000
G1 X71.248 Y-61.898 Z-2.000
G1 X71.248 Y-61.898 Z-2.200
G1 X71.248 Y-72.728 Z-2.200
G1 X82.078 Y-72.728 Z-2.200
G1 X82.078 Y-61.898 Z-2.200
G1 X71.248 Y-61.898 Z-2.200
G0 Z5.000
G0 Z5.000
G0 X71.248 Y-61.898
G0 X90.248 Y-63.299
G0 X90.248 Y-63.299 Z3.000
G1 X90.248 Y-63.299 Z-0.250
G1 X90.248 Y-74.129 Z-0.250
G1 X101.078 Y-74.129 Z-0.250
G1 X101.078 Y-63.299 Z-0.250
G1 X90.248 Y-63.299 Z-0.250
G1 X90.248 Y-63.299 Z-0.500
G1 X90.248 Y-74.129 Z-0.500
G1 X101.078 Y-74.129 Z-0.500
G1 X101.078 Y-63.299 Z-0.500
G1 X90.248 Y-63.299 Z-0.500
G1 X90.248 Y-63.299 Z-0.750
G1 X90.248 Y-74.129 Z-0.750
G1 X101.078 Y-74.129 Z-0.750
G1 X101.078 Y-63.299 Z-0.750
G1 X90.248 Y-63.299 Z-0.750
G1 X90.248 Y-63.299 Z-1.000
G1 X90.248 Y-74.129 Z-1.000
G1 X101.078 Y-74.129 Z-1.000
G1 X101.078 Y-63.299 Z-1.000
G1 X90.248 Y-63.299 Z-1.000
G1 X90.248 Y-63.299 Z-1.250
G1 X90.248 Y-74.129 Z-1.250
G1 X101.078 Y-74.129 Z-1.250
G1 X101.078 Y-63.299 Z-1.250
G1 X90.248 Y-63.299 Z-1.250
G1 X90.248 Y-63.299 Z-1.500
G1 X90.248 Y-74.129 Z-1.500
G1 X101.078 Y-74.129 Z-1.500
G1 X101.078 Y-63.299 Z-1.500
G1 X90.248 Y-63.299 Z-1.500
G1 X90.248 Y-63.299 Z-1.750
G1 X90.248 Y-74.129 Z-1.750
G1 X101.078 Y-74.129 Z-1.750
G1 X101.078 Y-63.299 Z-1.750
G1 X90.248 Y-63.299 Z-1.750
G1 X90.248 Y-63.299 Z-2.000
G1 X90.248 Y-74.129 Z-2.000
G1 X101.078 Y-74.129 Z-2.000
G1 X101.078 Y-63.299 Z-2.000
G1 X90.248 Y-63.299 Z-2.000
G1 X90.248 Y-63.299 Z-2.200
G1 X90.248 Y-74.129 Z-2.200
G1 X101.078 Y-74.129 Z-2.200
G1 X101.078 Y-63.299 Z-2.200
G1 X90.248 Y-63.299 Z-2.200
G0 Z5.000
G0 Z5.000
G0 X90.248 Y-63.299
G0 X90.249 Y-55.028
G0 X90.249 Y-55.028 Z3.000
G1 X90.249 Y-55.028 Z-0.250
G1 X101.079 Y-55.028 Z-0.250
G1 X101.079 Y-44.198 Z-0.250
G1 X90.249 Y-44.198 Z-0.250
G1 X90.249 Y-55.028 Z-0.250
G1 X90.249 Y-55.028 Z-0.500
G1 X101.079 Y-55.028 Z-0.500
G1 X101.079 Y-44.198 Z-0.500
G1 X90.249 Y-44.198 Z-0.500
G1 X90.249 Y-55.028 Z-0.500
G1 X90.249 Y-55.028 Z-0.750
G1 X101.079 Y-55.028 Z-0.750
G1 X101.079 Y-44.198 Z-0.750
G1 X90.249 Y-44.198 Z-0.750
G1 X90.249 Y-55.028 Z-0.750
G1 X90.249 Y-55.028 Z-1.000
G1 X101.079 Y-55.028 Z-1.000
G1 X101.079 Y-44.198 Z-1.000
G1 X90.249 Y-44.198 Z-1.000
G1 X90.249 Y-55.028 Z-1.000
G1 X90.249 Y-55.028 Z-1.250
G1 X101.079 Y-55.028 Z-1.250
G1 X101.079 Y-44.198 Z-1.250
G1 X90.249 Y-44.198 Z-1.250
G1 X90.249 Y-55.028 Z-1.250
G1 X90.249 Y-55.028 Z-1.500
G1 X101.079 Y-55.028 Z-1.500
G1 X101.079 Y-44.198 Z-1.500
G1 X90.249 Y-44.198 Z-1.500
G1 X90.249 Y-55.028 Z-1.500
G1 X90.249 Y-55.028 Z-1.750
G1 X101.079 Y-55.028 Z-1.750
G1 X101.079 Y-44.198 Z-1.750
G1 X90.249 Y-44.198 Z-1.750
G1 X90.249 Y-55.028 Z-1.750
G1 X90.249 Y-55.028 Z-2.000
G1 X101.079 Y-55.028 Z-2.000
G1 X101.079 Y-44.198 Z-2.000
G1 X90.249 Y-44.198 Z-2.000
G1 X90.249 Y-55.028 Z-2.000
G1 X90.249 Y-55.028 Z-2.200
G1 X101.079 Y-55.028 Z-2.200
G1 X101.079 Y-44.198 Z-2.200
G1 X90.249 Y-44.198 Z-2.200
G1 X90.249 Y-55.028 Z-2.200
G0 Z5.000
G0 Z5.000
G0 X90.249 Y-55.028
G0 X90.247 Y-35.928
G0 X90.247 Y-35.928 Z3.000
G1 X90.247 Y-35.928 Z-0.250
G1 X101.077 Y-35.928 Z-0.250
G1 X101.077 Y-25.098 Z-0.250
G1 X90.247 Y-25.098 Z-0.250
G1 X90.247 Y-35.928 Z-0.250
G1 X90.247 Y-35.928 Z-0.500
G1 X101.077 Y-35.928 Z-0.500
G1 X101.077 Y-25.098 Z-0.500
G1 X90.247 Y-25.098 Z-0.500
G1 X90.247 Y-35.928 Z-0.500
G1 X90.247 Y-35.928 Z-0.750
G1 X101.077 Y-35.928 Z-0.750
G1 X101.077 Y-25.098 Z-0.750
G1 X90.247 Y-25.098 Z-0.750
G1 X90.247 Y-35.928 Z-0.750
G1 X90.247 Y-35.928 Z-1.000
G1 X101.077 Y-35.928 Z-1.000
G1 X101.077 Y-25.098 Z-1.000
G1 X90.247 Y-25.098 Z-1.000
G1 X90.247 Y-35.928 Z-1.000
G1 X90.247 Y-35.928 Z-1.250
G1 X101.077 Y-35.928 Z-1.250
G1 X101.077 Y-25.098 Z-1.250
G1 X90.247 Y-25.098 Z-1.250
G1 X90.247 Y-35.928 Z-1.250
G1 X90.247 Y-35.928 Z-1.500
G1 X101.077 Y-35.928 Z-1.500
G1 X101.077 Y-25.098 Z-1.500
G1 X90.247 Y-25.098 Z-1.500
G1 X90.247 Y-35.928 Z-1.500
G1 X90.247 Y-35.928 Z-1.750
G1 X101.077 Y-35.928 Z-1.750
G1 X101.077 Y-25.098 Z-1.750
G1 X90.247 Y-25.098 Z-1.750
G1 X90.247 Y-35.928 Z-1.750
G1 X90.247 Y-35.928 Z-2.000
G1 X101.077 Y-35.928 Z-2.000
G1 X101.077 Y-25.098 Z-2.000
G1 X90.247 Y-25.098 Z-2.000
G1 X90.247 Y-35.928 Z-2.000
G1 X90.247 Y-35.928 Z-2.200
G1 X101.077 Y-35.928 Z-2.200
G1 X101.077 Y-25.098 Z-2.200
G1 X90.247 Y-25.098 Z-2.200
G1 X90.247 Y-35.928 Z-2.200
G0 Z5.000
G0 Z5.000
G0 X90.247 Y-35.928
G0 X90.253 Y-16.928
G0 X90.253 Y-16.928 Z3.000
G1 X90.253 Y-16.928 Z-0.250
G1 X101.083 Y-16.928 Z-0.250
G1 X101.083 Y-6.098 Z-0.250
G1 X90.253 Y-6.098 Z-0.250
G1 X90.253 Y-16.928 Z-0.250
G1 X90.253 Y-16.928 Z-0.500
G1 X101.083 Y-16.928 Z-0.500
G1 X101.083 Y-6.098 Z-0.500
G1 X90.253 Y-6.098 Z-0.500
G1 X90.253 Y-16.928 Z-0.500
G1 X90.253 Y-16.928 Z-0.750
G1 X101.083 Y-16.928 Z-0.750
G1 X101.083 Y-6.098 Z-0.750
G1 X90.253 Y-6.098 Z-0.750
G1 X90.253 Y-16.928 Z-0.750
G1 X90.253 Y-16.928 Z-1.000
G1 X101.083 Y-16.928 Z-1.000
G1 X101.083 Y-6.098 Z-1.000
G1 X90.253 Y-6.098 Z-1.000
G1 X90.253 Y-16.928 Z-1.000
G1 X90.253 Y-16.928 Z-1.250
G1 X101.083 Y-16.928 Z-1.250
G1 X101.083 Y-6.098 Z-1.250
G1 X90.253 Y-6.098 Z-1.250
G1 X90.253 Y-16.928 Z-1.250
G1 X90.253 Y-16.928 Z-1.500
G1 X101.083 Y-16.928 Z-1.500
G1 X101.083 Y-6.098 Z-1.500
G1 X90.253 Y-6.098 Z-1.500
G1 X90.253 Y-16.928 Z-1.500
G1 X90.253 Y-16.928 Z-1.750
G1 X101.083 Y-16.928 Z-1.750
G1 X101.083 Y-6.098 Z-1.750
G1 X90.253 Y-6.098 Z-1.750
G1 X90.253 Y-16.928 Z-1.750
G1 X90.253 Y-16.928 Z-2.000
G1 X101.083 Y-16.928 Z-2.000
G1 X101.083 Y-6.098 Z-2.000
G1 X90.253 Y-6.098 Z-2.000
G1 X90.253 Y-16.928 Z-2.000
G1 X90.253 Y-16.928 Z-2.200
G1 X101.083 Y-16.928 Z-2.200
G1 X101.083 Y-6.098 Z-2.200
G1 X90.253 Y-6.098 Z-2.200
G1 X90.253 Y-16.928 Z-2.200
G0 Z5.000
G0 Z5.000
G0 X90.253 Y-16.928
G0 X109.349 Y-16.928
G0 X109.349 Y-16.928 Z3.000
G1 X109.349 Y-16.928 Z-0.250
G1 X109.349 Y-21.729 Z-0.250
G1 X120.179 Y-21.729 Z-0.250
G1 X120.179 Y-10.899 Z-0.250
G1 X109.349 Y-10.899 Z-0.250
G1 X109.349 Y-16.928 Z-0.250
G1 X109.349 Y-16.928 Z-0.500
G1 X109.349 Y-21.729 Z-0.500
G1 X120.179 Y-21.729 Z-0.500
G1 X120.179 Y-10.899 Z-0.500
G1 X109.349 Y-10.899 Z-0.500
G1 X109.349 Y-16.928 Z-0.500
G1 X109.349 Y-16.928 Z-0.750
G1 X109.349 Y-21.729 Z-0.750
G1 X120.179 Y-21.729 Z-0.750
G1 X120.179 Y-10.899 Z-0.750
G1 X109.349 Y-10.899 Z-0.750
G1 X109.349 Y-16.928 Z-0.750
G1 X109.349 Y-16.928 Z-1.000
G1 X109.349 Y-21.729 Z-1.000
G1 X120.179 Y-21.729 Z-1.000
G1 X120.179 Y-10.899 Z-1.000
G1 X109.349 Y-10.899 Z-1.000
G1 X109.349 Y-16.928 Z-1.000
G1 X109.349 Y-16.928 Z-1.250
G1 X109.349 Y-21.729 Z-1.250
G1 X120.179 Y-21.729 Z-1.250
G1 X120.179 Y-10.899 Z-1.250
G1 X109.349 Y-10.899 Z-1.250
G1 X109.349 Y-16.928 Z-1.250
G1 X109.349 Y-16.928 Z-1.500
G1 X109.349 Y-21.729 Z-1.500
G1 X120.179 Y-21.729 Z-1.500
G1 X120.179 Y-10.899 Z-1.500
G1 X109.349 Y-10.899 Z-1.500
G1 X109.349 Y-16.928 Z-1.500
G1 X109.349 Y-16.928 Z-1.750
G1 X109.349 Y-21.729 Z-1.750
G1 X120.179 Y-21.729 Z-1.750
G1 X120.179 Y-10.899 Z-1.750
G1 X109.349 Y-10.899 Z-1.750
G1 X109.349 Y-16.928 Z-1.750
G1 X109.349 Y-16.928 Z-2.000
G1 X109.349 Y-21.729 Z-2.000
G1 X120.179 Y-21.729 Z-2.000
G1 X120.179 Y-10.899 Z-2.000
G1 X109.349 Y-10.899 Z-2.000
G1 X109.349 Y-16.928 Z-2.000
G1 X109.349 Y-16.928 Z-2.200
G1 X109.349 Y-21.729 Z-2.200
G1 X120.179 Y-21.729 Z-2.200
G1 X120.179 Y-10.899 Z-2.200
G1 X109.349 Y-10.899 Z-2.200
G1 X109.349 Y-16.928 Z-2.200
G0 Z5.000
G0 Z5.000
G0 X109.349 Y-16.928
G0 X109.347 Y-29.799
G0 X109.347 Y-29.799 Z3.000
G1 X109.347 Y-29.799 Z-0.250
G1 X109.347 Y-40.629 Z-0.250
G1 X120.178 Y-40.629 Z-0.250
G1 X120.178 Y-29.799 Z-0.250
G1 X109.347 Y-29.799 Z-0.250
G1 X109.347 Y-29.799 Z-0.500
G1 X109.347 Y-40.629 Z-0.500
G1 X120.178 Y-40.629 Z-0.500
G1 X120.178 Y-29.799 Z-0.500
G1 X109.347 Y-29.799 Z-0.500
G1 X109.347 Y-29.799 Z-0.750
G1 X109.347 Y-40.629 Z-0.750
G1 X120.178 Y-40.629 Z-0.750
G1 X120.178 Y-29.799 Z-0.750
G1 X109.347 Y-29.799 Z-0.750
G1 X109.347 Y-29.799 Z-1.000
G1 X109.347 Y-40.629 Z-1.000
G1 X120.178 Y-40.629 Z-1.000
G1 X120.178 Y-29.799 Z-1.000
G1 X109.347 Y-29.799 Z-1.000
G1 X109.347 Y-29.799 Z-1.250
G1 X109.347 Y-40.629 Z-1.250
G1 X120.178 Y-40.629 Z-1.250
G1 X120.178 Y-29.799 Z-1.250
G1 X109.347 Y-29.799 Z-1.250
G1 X109.347 Y-29.799 Z-1.500
G1 X109.347 Y-40.629 Z-1.500
G1 X120.178 Y-40.629 Z-1.500
G1 X120.178 Y-29.799 Z-1.500
G1 X109.347 Y-29.799 Z-1.500
G1 X109.347 Y-29.799 Z-1.750
G1 X109.347 Y-40.629 Z-1.750
G1 X120.178 Y-40.629 Z-1.750
G1 X120.178 Y-29.799 Z-1.750
G1 X109.347 Y-29.799 Z-1.750
G1 X109.347 Y-29.799 Z-2.000
G1 X109.347 Y-40.629 Z-2.000
G1 X120.178 Y-40.629 Z-2.000
G1 X120.178 Y-29.799 Z-2.000
G1 X109.347 Y-29.799 Z-2.000
G1 X109.347 Y-29.799 Z-2.200
G1 X109.347 Y-40.629 Z-2.200
G1 X120.178 Y-40.629 Z-2.200
G1 X120.178 Y-29.799 Z-2.200
G1 X109.347 Y-29.799 Z-2.200
G0 Z5.000
G0 Z5.000
G0 X109.347 Y-29.799
G0 X109.347 Y-48.999
G0 X109.347 Y-48.999 Z3.000
G1 X109.347 Y-48.999 Z-0.250
G1 X109.334 Y-48.999 Z-0.250
G1 X109.334 Y-59.829 Z-0.250
G1 X120.164 Y-59.829 Z-0.250
G1 X120.164 Y-48.999 Z-0.250
G1 X109.347 Y-48.999 Z-0.250
G1 X109.347 Y-48.999 Z-0.500
G1 X109.334 Y-48.999 Z-0.500
G1 X109.334 Y-59.829 Z-0.500
G1 X120.164 Y-59.829 Z-0.500
G1 X120.164 Y-48.999 Z-0.500
G1 X109.347 Y-48.999 Z-0.500
G1 X109.347 Y-48.999 Z-0.750
G1 X109.334 Y-48.999 Z-0.750
G1 X109.334 Y-59.829 Z-0.750
G1 X120.164 Y-59.829 Z-0.750
G1 X120.164 Y-48.999 Z-0.750
G1 X109.347 Y-48.999 Z-0.750
G1 X109.347 Y-48.999 Z-1.000
G1 X109.334 Y-48.999 Z-1.000
G1 X109.334 Y-59.829 Z-1.000
G1 X120.164 Y-59.829 Z-1.000
G1 X120.164 Y-48.999 Z-1.000
G1 X109.347 Y-48.999 Z-1.000
G1 X109.347 Y-48.999 Z-1.250
G1 X109.334 Y-48.999 Z-1.250
G1 X109.334 Y-59.829 Z-1.250
G1 X120.164 Y-59.829 Z-1.250
G1 X120.164 Y-48.999 Z-1.250
G1 X109.347 Y-48.999 Z-1.250
G1 X109.347 Y-48.999 Z-1.500
G1 X109.334 Y-48.999 Z-1.500
G1 X109.334 Y-59.829 Z-1.500
G1 X120.164 Y-59.829 Z-1.500
G1 X120.164 Y-48.999 Z-1.500
G1 X109.347 Y-48.999 Z-1.500
G1 X109.347 Y-48.999 Z-1.750
G1 X109.334 Y-48.999 Z-1.750
G1 X109.334 Y-59.829 Z-1.750
G1 X120.164 Y-59.829 Z-1.750
G1 X120.164 Y-48.999 Z-1.750
G1 X109.347 Y-48.999 Z-1.750
G1 X109.347 Y-48.999 Z-2.000
G1 X109.334 Y-48.999 Z-2.000
G1 X109.334 Y-59.829 Z-2.000
G1 X120.164 Y-59.829 Z-2.000
G1 X120.164 Y-48.999 Z-2.000
G1 X109.347 Y-48.999 Z-2.000
G1 X109.347 Y-48.999 Z-2.200
G1 X109.334 Y-48.999 Z-2.200
G1 X109.334 Y-59.829 Z-2.200
G1 X120.164 Y-59.829 Z-2.200
G1 X120.164 Y-48.999 Z-2.200
G1 X109.347 Y-48.999 Z-2.200
G0 Z5.000
G0 Z5.000
G0 X109.347 Y-48.999
G0 X109.348 Y-67.998
G0 X109.348 Y-67.998 Z3.000
G1 X109.348 Y-67.998 Z-0.250
G1 X109.348 Y-78.828 Z-0.250
G1 X120.179 Y-78.828 Z-0.250
G1 X120.179 Y-67.998 Z-0.250
G1 X109.348 Y-67.998 Z-0.250
G1 X109.348 Y-67.998 Z-0.500
G1 X109.348 Y-78.828 Z-0.500
G1 X120.179 Y-78.828 Z-0.500
G1 X120.179 Y-67.998 Z-0.500
G1 X109.348 Y-67.998 Z-0.500
G1 X109.348 Y-67.998 Z-0.750
G1 X109.348 Y-78.828 Z-0.750
G1 X120.179 Y-78.828 Z-0.750
G1 X120.179 Y-67.998 Z-0.750
G1 X109.348 Y-67.998 Z-0.750
G1 X109.348 Y-67.998 Z-1.000
G1 X109.348 Y-78.828 Z-1.000
G1 X120.179 Y-78.828 Z-1.000
G1 X120.179 Y-67.998 Z-1.000
G1 X109.348 Y-67.998 Z-1.000
G1 X109.348 Y-67.998 Z-1.250
G1 X109.348 Y-78.828 Z-1.250
G1 X120.179 Y-78.828 Z-1.250
G1 X120.179 Y-67.998 Z-1.250
G1 X109.348 Y-67.998 Z-1.250
G1 X109.348 Y-67.998 Z-1.500
G1 X109.348 Y-78.828 Z-1.500
G1 X120.179 Y-78.828 Z-1.500
G1 X120.179 Y-67.998 Z-1.500
G1 X109.348 Y-67.998 Z-1.500
G1 X109.348 Y-67.998 Z-1.750
G1 X109.348 Y-78.828 Z-1.750
G1 X120.179 Y-78.828 Z-1.750
G1 X120.179 Y-67.998 Z-1.750
G1 X109.348 Y-67.998 Z-1.750
G1 X109.348 Y-67.998 Z-2.000
G1 X109.348 Y-78.828 Z-2.000
G1 X120.179 Y-78.828 Z-2.000
G1 X120.179 Y-67.998 Z-2.000
G1 X109.348 Y-67.998 Z-2.000
G1 X109.348 Y-67.998 Z-2.200
G1 X109.348 Y-78.828 Z-2.200
G1 X120.179 Y-78.828 Z-2.200
G1 X120.179 Y-67.998 Z-2.200
G1 X109.348 Y-67.998 Z-2.200
G0 Z5.000
G0 Z5.000
G0 X109.348 Y-67.998
G0 X128.397 Y-69.499
G0 X128.397 Y-69.499 Z3.000
G1 X128.397 Y-69.499 Z-0.250
G1 X128.397 Y-80.329 Z-0.250
G1 X139.228 Y-80.329 Z-0.250
G1 X139.228 Y-69.499 Z-0.250
G1 X128.397 Y-69.499 Z-0.250
G1 X128.397 Y-69.499 Z-0.500
G1 X128.397 Y-80.329 Z-0.500
G1 X139.228 Y-80.329 Z-0.500
G1 X139.228 Y-69.499 Z-0.500
G1 X128.397 Y-69.499 Z-0.500
G1 X128.397 Y-69.499 Z-0.750
G1 X128.397 Y-80.329 Z-0.750
G1 X139.228 Y-80.329 Z-0.750
G1 X139.228 Y-69.499 Z-0.750
G1 X128.397 Y-69.499 Z-0.750
G1 X128.397 Y-69.499 Z-1.000
G1 X128.397 Y-80.329 Z-1.000
G1 X139.228 Y-80.329 Z-1.000
G1 X139.228 Y-69.499 Z-1.000
G1 X128.397 Y-69.499 Z-1.000
G1 X128.397 Y-69.499 Z-1.250
G1 X128.397 Y-80.329 Z-1.250
G1 X139.228 Y-80.329 Z-1.250
G1 X139.228 Y-69.499 Z-1.250
G1 X128.397 Y-69.499 Z-1.250
G1 X128.397 Y-69.499 Z-1.500
G1 X128.397 Y-80.329 Z-1.500
G1 X139.228 Y-80.329 Z-1.500
G1 X139.228 Y-69.499 Z-1.500
G1 X128.397 Y-69.499 Z-1.500
G1 X128.397 Y-69.499 Z-1.750
G1 X128.397 Y-80.329 Z-1.750
G1 X139.228 Y-80.329 Z-1.750
G1 X139.228 Y-69.499 Z-1.750
G1 X128.397 Y-69.499 Z-1.750
G1 X128.397 Y-69.499 Z-2.000
G1 X128.397 Y-80.329 Z-2.000
G1 X139.228 Y-80.329 Z-2.000
G1 X139.228 Y-69.499 Z-2.000
G1 X128.397 Y-69.499 Z-2.000
G1 X128.397 Y-69.499 Z-2.200
G1 X128.397 Y-80.329 Z-2.200
G1 X139.228 Y-80.329 Z-2.200
G1 X139.228 Y-69.499 Z-2.200
G1 X128.397 Y-69.499 Z-2.200
G0 Z5.000
G0 Z5.000
G0 X128.397 Y-69.499
G0 Y-61.330
G0 Y-61.330 Z3.000
G1 X128.397 Y-61.330 Z-0.250
G1 X139.179 Y-61.330 Z-0.250
G1 X139.179 Y-50.500 Z-0.250
G1 X128.349 Y-50.500 Z-0.250
G1 X128.349 Y-61.330 Z-0.250
G1 X128.397 Y-61.330 Z-0.250
G1 X128.397 Y-61.330 Z-0.500
G1 X139.179 Y-61.330 Z-0.500
G1 X139.179 Y-50.500 Z-0.500
G1 X128.349 Y-50.500 Z-0.500
G1 X128.349 Y-61.330 Z-0.500
G1 X128.397 Y-61.330 Z-0.500
G1 X128.397 Y-61.330 Z-0.750
G1 X139.179 Y-61.330 Z-0.750
G1 X139.179 Y-50.500 Z-0.750
G1 X128.349 Y-50.500 Z-0.750
G1 X128.349 Y-61.330 Z-0.750
G1 X128.397 Y-61.330 Z-0.750
G1 X128.397 Y-61.330 Z-1.000
G1 X139.179 Y-61.330 Z-1.000
G1 X139.179 Y-50.500 Z-1.000
G1 X128.349 Y-50.500 Z-1.000
G1 X128.349 Y-61.330 Z-1.000
G1 X128.397 Y-61.330 Z-1.000
G1 X128.397 Y-61.330 Z-1.250
G1 X139.179 Y-61.330 Z-1.250
G1 X139.179 Y-50.500 Z-1.250
G1 X128.349 Y-50.500 Z-1.250
G1 X128.349 Y-61.330 Z-1.250
G1 X128.397 Y-61.330 Z-1.250
G1 X128.397 Y-61.330 Z-1.500
G1 X139.179 Y-61.330 Z-1.500
G1 X139.179 Y-50.500 Z-1.500
G1 X128.349 Y-50.500 Z-1.500
G1 X128.349 Y-61.330 Z-1.500
G1 X128.397 Y-61.330 Z-1.500
G1 X128.397 Y-61.330 Z-1.750
G1 X139.179 Y-61.330 Z-1.750
G1 X139.179 Y-50.500 Z-1.750
G1 X128.349 Y-50.500 Z-1.750
G1 X128.349 Y-61.330 Z-1.750
G1 X128.397 Y-61.330 Z-1.750
G1 X128.397 Y-61.330 Z-2.000
G1 X139.179 Y-61.330 Z-2.000
G1 X139.179 Y-50.500 Z-2.000
G1 X128.349 Y-50.500 Z-2.000
G1 X128.349 Y-61.330 Z-2.000
G1 X128.397 Y-61.330 Z-2.000
G1 X128.397 Y-61.330 Z-2.200
G1 X139.179 Y-61.330 Z-2.200
G1 X139.179 Y-50.500 Z-2.200
G1 X128.349 Y-50.500 Z-2.200
G1 X128.349 Y-61.330 Z-2.200
G1 X128.397 Y-61.330 Z-2.200
G0 Z5.000
G0 Z5.000
G0 X128.397 Y-61.330
G0 Y-42.128
G0 Y-42.128 Z3.000
G1 X128.397 Y-42.128 Z-0.250
G1 X139.177 Y-42.128 Z-0.250
G1 X139.177 Y-31.300 Z-0.250
G1 X128.346 Y-31.300 Z-0.250
G1 X128.346 Y-42.128 Z-0.250
G1 X128.397 Y-42.128 Z-0.250
G1 X128.397 Y-42.128 Z-0.500
G1 X139.177 Y-42.128 Z-0.500
G1 X139.177 Y-31.300 Z-0.500
G1 X128.346 Y-31.300 Z-0.500
G1 X128.346 Y-42.128 Z-0.500
G1 X128.397 Y-42.128 Z-0.500
G1 X128.397 Y-42.128 Z-0.750
G1 X139.177 Y-42.128 Z-0.750
G1 X139.177 Y-31.300 Z-0.750
G1 X128.346 Y-31.300 Z-0.750
G1 X128.346 Y-42.128 Z-0.750
G1 X128.397 Y-42.128 Z-0.750
G1 X128.397 Y-42.128 Z-1.000
G1 X139.177 Y-42.128 Z-1.000
G1 X139.177 Y-31.300 Z-1.000
G1 X128.346 Y-31.300 Z-1.000
G1 X128.346 Y-42.128 Z-1.000
G1 X128.397 Y-42.128 Z-1.000
G1 X128.397 Y-42.128 Z-1.250
G1 X139.177 Y-42.128 Z-1.250
G1 X139.177 Y-31.300 Z-1.250
G1 X128.346 Y-31.300 Z-1.250
G1 X128.346 Y-42.128 Z-1.250
G1 X128.397 Y-42.128 Z-1.250
G1 X128.397 Y-42.128 Z-1.500
G1 X139.177 Y-42.128 Z-1.500
G1 X139.177 Y-31.300 Z-1.500
G1 X128.346 Y-31.300 Z-1.500
G1 X128.346 Y-42.128 Z-1.500
G1 X128.397 Y-42.128 Z-1.500
G1 X128.397 Y-42.128 Z-1.750
G1 X139.177 Y-42.128 Z-1.750
G1 X139.177 Y-31.300 Z-1.750
G1 X128.346 Y-31.300 Z-1.750
G1 X128.346 Y-42.128 Z-1.750
G1 X128.397 Y-42.128 Z-1.750
G1 X128.397 Y-42.128 Z-2.000
G1 X139.177 Y-42.128 Z-2.000
G1 X139.177 Y-31.300 Z-2.000
G1 X128.346 Y-31.300 Z-2.000
G1 X128.346 Y-42.128 Z-2.000
G1 X128.397 Y-42.128 Z-2.000
G1 X128.397 Y-42.128 Z-2.200
G1 X139.177 Y-42.128 Z-2.200
G1 X139.177 Y-31.300 Z-2.200
G1 X128.346 Y-31.300 Z-2.200
G1 X128.346 Y-42.128 Z-2.200
G1 X128.397 Y-42.128 Z-2.200
G0 Z5.000
G0 Z5.000
G0 X128.397 Y-42.128
G0 Y-23.229
G0 Y-23.229 Z3.000
G1 X128.397 Y-23.229 Z-0.250
G1 X139.177 Y-23.229 Z-0.250
G1 X139.177 Y-12.398 Z-0.250
G1 X128.346 Y-12.398 Z-0.250
G1 X128.346 Y-23.229 Z-0.250
G1 X128.397 Y-23.229 Z-0.250
G1 X128.397 Y-23.229 Z-0.500
G1 X139.177 Y-23.229 Z-0.500
G1 X139.177 Y-12.398 Z-0.500
G1 X128.346 Y-12.398 Z-0.500
G1 X128.346 Y-23.229 Z-0.500
G1 X128.397 Y-23.229 Z-0.500
G1 X128.397 Y-23.229 Z-0.750
G1 X139.177 Y-23.229 Z-0.750
G1 X139.177 Y-12.398 Z-0.750
G1 X128.346 Y-12.398 Z-0.750
G1 X128.346 Y-23.229 Z-0.750
G1 X128.397 Y-23.229 Z-0.750
G1 X128.397 Y-23.229 Z-1.000
G1 X139.177 Y-23.229 Z-1.000
G1 X139.177 Y-12.398 Z-1.000
G1 X128.346 Y-12.398 Z-1.000
G1 X128.346 Y-23.229 Z-1.000
G1 X128.397 Y-23.229 Z-1.000
G1 X128.397 Y-23.229 Z-1.250
G1 X139.177 Y-23.229 Z-1.250
G1 X139.177 Y-12.398 Z-1.250
G1 X128.346 Y-12.398 Z-1.250
G1 X128.346 Y-23.229 Z-1.250
G1 X128.397 Y-23.229 Z-1.250
G1 X128.397 Y-23.229 Z-1.500
G1 X139.177 Y-23.229 Z-1.500
G1 X139.177 Y-12.398 Z-1.500
G1 X128.346 Y-12.398 Z-1.500
G1 X128.346 Y-23.229 Z-1.500
G1 X128.397 Y-23.229 Z-1.500
G1 X128.397 Y-23.229 Z-1.750
G1 X139.177 Y-23.229 Z-1.750
G1 X139.177 Y-12.398 Z-1.750
G1 X128.346 Y-12.398 Z-1.750
G1 X128.346 Y-23.229 Z-1.750
G1 X128.397 Y-23.229 Z-1.750
G1 X128.397 Y-23.229 Z-2.000
G1 X139.177 Y-23.229 Z-2.000
G1 X139.177 Y-12.398 Z-2.000
G1 X128.346 Y-12.398 Z-2.000
G1 X128.346 Y-23.229 Z-2.000
G1 X128.397 Y-23.229 Z-2.000
G1 X128.397 Y-23.229 Z-2.200
G1 X139.177 Y-23.229 Z-2.200
G1 X139.177 Y-12.398 Z-2.200
G1 X128.346 Y-12.398 Z-2.200
G1 X128.346 Y-23.229 Z-2.200
G1 X128.397 Y-23.229 Z-2.200
G0 Z5.000
G0 Z5.000
G0 X128.397 Y-23.229
G0 X91.579 Y-82.249
G0 X91.579 Y-82.249 Z3.000
G1 X91.579 Y-82.249 Z-0.250
G1 X80.748 Y-82.249 Z-0.250
G1 X80.748 Y-93.080 Z-0.250
G1 X91.579 Y-93.080 Z-0.250
G1 X91.579 Y-82.249 Z-0.250
G1 X91.579 Y-82.249 Z-0.500
G1 X80.748 Y-82.249 Z-0.500
G1 X80.748 Y-93.080 Z-0.500
G1 X91.579 Y-93.080 Z-0.500
G1 X91.579 Y-82.249 Z-0.500
G1 X91.579 Y-82.249 Z-0.750
G1 X80.748 Y-82.249 Z-0.750
G1 X80.748 Y-93.080 Z-0.750
G1 X91.579 Y-93.080 Z-0.750
G1 X91.579 Y-82.249 Z-0.750
G1 X91.579 Y-82.249 Z-1.000
G1 X80.748 Y-82.249 Z-1.000
G1 X80.748 Y-93.080 Z-1.000
G1 X91.579 Y-93.080 Z-1.000
G1 X91.579 Y-82.249 Z-1.000
G1 X91.579 Y-82.249 Z-1.250
G1 X80.748 Y-82.249 Z-1.250
G1 X80.748 Y-93.080 Z-1.250
G1 X91.579 Y-93.080 Z-1.250
G1 X91.579 Y-82.249 Z-1.250
G1 X91.579 Y-82.249 Z-1.500
G1 X80.748 Y-82.249 Z-1.500
G1 X80.748 Y-93.080 Z-1.500
G1 X91.579 Y-93.080 Z-1.500
G1 X91.579 Y-82.249 Z-1.500
G1 X91.579 Y-82.249 Z-1.750
G1 X80.748 Y-82.249 Z-1.750
G1 X80.748 Y-93.080 Z-1.750
G1 X91.579 Y-93.080 Z-1.750
G1 X91.579 Y-82.249 Z-1.750
G1 X91.579 Y-82.249 Z-2.000
G1 X80.748 Y-82.249 Z-2.000
G1 X80.748 Y-93.080 Z-2.000
G1 X91.579 Y-93.080 Z-2.000
G1 X91.579 Y-82.249 Z-2.000
G1 X91.579 Y-82.249 Z-2.200
G1 X80.748 Y-82.249 Z-2.200
G1 X80.748 Y-93.080 Z-2.200
G1 X91.579 Y-93.080 Z-2.200
G1 X91.579 Y-82.249 Z-2.200
G0 Z5.000
G0 Z5.000
G0 X91.579 Y-82.249
G0 X72.478 Y-82.248
G0 X72.478 Y-82.248 Z3.000
G1 X72.478 Y-82.248 Z-0.250
G1 X61.648 Y-82.248 Z-0.250
G1 X61.648 Y-93.078 Z-0.250
G1 X72.478 Y-93.078 Z-0.250
G1 X72.478 Y-82.248 Z-0.250
G1 X72.478 Y-82.248 Z-0.500
G1 X61.648 Y-82.248 Z-0.500
G1 X61.648 Y-93.078 Z-0.500
G1 X72.478 Y-93.078 Z-0.500
G1 X72.478 Y-82.248 Z-0.500
G1 X72.478 Y-82.248 Z-0.750
G1 X61.648 Y-82.248 Z-0.750
G1 X61.648 Y-93.078 Z-0.750
G1 X72.478 Y-93.078 Z-0.750
G1 X72.478 Y-82.248 Z-0.750
G1 X72.478 Y-82.248 Z-1.000
G1 X61.648 Y-82.248 Z-1.000
G1 X61.648 Y-93.078 Z-1.000
G1 X72.478 Y-93.078 Z-1.000
G1 X72.478 Y-82.248 Z-1.000
G1 X72.478 Y-82.248 Z-1.250
G1 X61.648 Y-82.248 Z-1.250
G1 X61.648 Y-93.078 Z-1.250
G1 X72.478 Y-93.078 Z-1.250
G1 X72.478 Y-82.248 Z-1.250
G1 X72.478 Y-82.248 Z-1.500
G1 X61.648 Y-82.248 Z-1.500
G1 X61.648 Y-93.078 Z-1.500
G1 X72.478 Y-93.078 Z-1.500
G1 X72.478 Y-82.248 Z-1.500
G1 X72.478 Y-82.248 Z-1.750
G1 X61.648 Y-82.248 Z-1.750
G1 X61.648 Y-93.078 Z-1.750
G1 X72.478 Y-93.078 Z-1.750
G1 X72.478 Y-82.248 Z-1.750
G1 X72.478 Y-82.248 Z-2.000
G1 X61.648 Y-82.248 Z-2.000
G1 X61.648 Y-93.078 Z-2.000
G1 X72.478 Y-93.078 Z-2.000
G1 X72.478 Y-82.248 Z-2.000
G1 X72.478 Y-82.248 Z-2.200
G1 X61.648 Y-82.248 Z-2.200
G1 X61.648 Y-93.078 Z-2.200
G1 X72.478 Y-93.078 Z-2.200
G1 X72.478 Y-82.248 Z-2.200
G0 Z5.000
G0 Z5.000
G0 X72.478 Y-82.248
G0 X53.477 Y-84.499
G0 X53.477 Y-84.499 Z3.000
G1 X53.477 Y-84.499 Z-0.250
G1 X42.647 Y-84.499 Z-0.250
G1 X42.647 Y-95.329 Z-0.250
G1 X53.477 Y-95.329 Z-0.250
G1 X53.477 Y-84.499 Z-0.250
G1 X53.477 Y-84.499 Z-0.500
G1 X42.647 Y-84.499 Z-0.500
G1 X42.647 Y-95.329 Z-0.500
G1 X53.477 Y-95.329 Z-0.500
G1 X53.477 Y-84.499 Z-0.500
G1 X53.477 Y-84.499 Z-0.750
G1 X42.647 Y-84.499 Z-0.750
G1 X42.647 Y-95.329 Z-0.750
G1 X53.477 Y-95.329 Z-0.750
G1 X53.477 Y-84.499 Z-0.750
G1 X53.477 Y-84.499 Z-1.000
G1 X42.647 Y-84.499 Z-1.000
G1 X42.647 Y-95.329 Z-1.000
G1 X53.477 Y-95.329 Z-1.000
G1 X53.477 Y-84.499 Z-1.000
G1 X53.477 Y-84.499 Z-1.250
G1 X42.647 Y-84.499 Z-1.250
G1 X42.647 Y-95.329 Z-1.250
G1 X53.477 Y-95.329 Z-1.250
G1 X53.477 Y-84.499 Z-1.250
G1 X53.477 Y-84.499 Z-1.500
G1 X42.647 Y-84.499 Z-1.500
G1 X42.647 Y-95.329 Z-1.500
G1 X53.477 Y-95.329 Z-1.500
G1 X53.477 Y-84.499 Z-1.500
G1 X53.477 Y-84.499 Z-1.750
G1 X42.647 Y-84.499 Z-1.750
G1 X42.647 Y-95.329 Z-1.750
G1 X53.477 Y-95.329 Z-1.750
G1 X53.477 Y-84.499 Z-1.750
G1 X53.477 Y-84.499 Z-2.000
G1 X42.647 Y-84.499 Z-2.000
G1 X42.647 Y-95.329 Z-2.000
G1 X53.477 Y-95.329 Z-2.000
G1 X53.477 Y-84.499 Z-2.000
G1 X53.477 Y-84.499 Z-2.200
G1 X42.647 Y-84.499 Z-2.200
G1 X42.647 Y-95.329 Z-2.200
G1 X53.477 Y-95.329 Z-2.200
G1 X53.477 Y-84.499 Z-2.200
G0 Z5.000
G0 Z5.000
G0 X53.477 Y-84.499
G0 X30.460 Y-92.895
G0 X30.460 Y-92.895 Z3.000
G1 X30.460 Y-92.895 Z-0.250
G1 X25.045 Y-83.516 Z-0.250
G1 X15.666 Y-88.931 Z-0.250
G1 X21.081 Y-98.310 Z-0.250
G1 X30.460 Y-92.895 Z-0.250
G1 X30.460 Y-92.895 Z-0.500
G1 X25.045 Y-83.516 Z-0.500
G1 X15.666 Y-88.931 Z-0.500
G1 X21.081 Y-98.310 Z-0.500
G1 X30.460 Y-92.895 Z-0.500
G1 X30.460 Y-92.895 Z-0.750
G1 X25.045 Y-83.516 Z-0.750
G1 X15.666 Y-88.931 Z-0.750
G1 X21.081 Y-98.310 Z-0.750
G1 X30.460 Y-92.895 Z-0.750
G1 X30.460 Y-92.895 Z-1.000
G1 X25.045 Y-83.516 Z-1.000
G1 X15.666 Y-88.931 Z-1.000
G1 X21.081 Y-98.310 Z-1.000
G1 X30.460 Y-92.895 Z-1.000
G1 X30.460 Y-92.895 Z-1.250
G1 X25.045 Y-83.516 Z-1.250
G1 X15.666 Y-88.931 Z-1.250
G1 X21.081 Y-98.310 Z-1.250
G1 X30.460 Y-92.895 Z-1.250
G1 X30.460 Y-92.895 Z-1.500
G1 X25.045 Y-83.516 Z-1.500
G1 X15.666 Y-88.931 Z-1.500
G1 X21.081 Y-98.310 Z-1.500
G1 X30.460 Y-92.895 Z-1.500
G1 X30.460 Y-92.895 Z-1.750
G1 X25.045 Y-83.516 Z-1.750
G1 X15.666 Y-88.931 Z-1.750
G1 X21.081 Y-98.310 Z-1.750
G1 X30.460 Y-92.895 Z-1.750
G1 X30.460 Y-92.895 Z-2.000
G1 X25.045 Y-83.516 Z-2.000
G1 X15.666 Y-88.931 Z-2.000
G1 X21.081 Y-98.310 Z-2.000
G1 X30.460 Y-92.895 Z-2.000
G1 X30.460 Y-92.895 Z-2.200
G1 X25.045 Y-83.516 Z-2.200
G1 X15.666 Y-88.931 Z-2.200
G1 X21.081 Y-98.310 Z-2.200
G1 X30.460 Y-92.895 Z-2.200
G0 Z5.000
G0 Z5.000
G0 X30.460 Y-92.895
G0 X24.830 Y-66.829
G0 X24.830 Y-66.829 Z3.000
G1 X24.830 Y-66.829 Z-0.250
G1 X24.830 Y-55.999 Z-0.250
G1 X14.048 Y-55.999 Z-0.250
G1 X14.048 Y-66.829 Z-0.250
G1 X24.830 Y-66.829 Z-0.250
G1 X24.830 Y-66.829 Z-0.500
G1 X24.830 Y-55.999 Z-0.500
G1 X14.048 Y-55.999 Z-0.500
G1 X14.048 Y-66.829 Z-0.500
G1 X24.830 Y-66.829 Z-0.500
G1 X24.830 Y-66.829 Z-0.750
G1 X24.830 Y-55.999 Z-0.750
G1 X14.048 Y-55.999 Z-0.750
G1 X14.048 Y-66.829 Z-0.750
G1 X24.830 Y-66.829 Z-0.750
G1 X24.830 Y-66.829 Z-1.000
G1 X24.830 Y-55.999 Z-1.000
G1 X14.048 Y-55.999 Z-1.000
G1 X14.048 Y-66.829 Z-1.000
G1 X24.830 Y-66.829 Z-1.000
G1 X24.830 Y-66.829 Z-1.250
G1 X24.830 Y-55.999 Z-1.250
G1 X14.048 Y-55.999 Z-1.250
G1 X14.048 Y-66.829 Z-1.250
G1 X24.830 Y-66.829 Z-1.250
G1 X24.830 Y-66.829 Z-1.500
G1 X24.830 Y-55.999 Z-1.500
G1 X14.048 Y-55.999 Z-1.500
G1 X14.048 Y-66.829 Z-1.500
G1 X24.830 Y-66.829 Z-1.500
G1 X24.830 Y-66.829 Z-1.750
G1 X24.830 Y-55.999 Z-1.750
G1 X14.048 Y-55.999 Z-1.750
G1 X14.048 Y-66.829 Z-1.750
G1 X24.830 Y-66.829 Z-1.750
G1 X24.830 Y-66.829 Z-2.000
G1 X24.830 Y-55.999 Z-2.000
G1 X14.048 Y-55.999 Z-2.000
G1 X14.048 Y-66.829 Z-2.000
G1 X24.830 Y-66.829 Z-2.000
G1 X24.830 Y-66.829 Z-2.200
G1 X24.830 Y-55.999 Z-2.200
G1 X14.048 Y-55.999 Z-2.200
G1 X14.048 Y-66.829 Z-2.200
G1 X24.830 Y-66.829 Z-2.200
G0 Z5.000
G0 Z5.000
(Finish operation: Keyholes)
(Begin postamble)
M5
G17 G90
M2
