(Exported by FreeCAD)
(Post Processor: grbl_post)
(Output Time:2021-05-28 23:46:38.824491)
(Begin preamble)
G17 G90
G21
(Begin operation: Fixture)
(Path: Fixture)
G54
G0 Z5.000
(Finish operation: Fixture)
(Begin operation: Profile002)
(Path: Profile002)
(Profile002)
(Compensated Tool Path. Diameter: 3.17)
G0 Z5.000
G0 X142.662 Y-4.452
G0 Z3.000
G1 X142.662 Y-4.452 Z0.000
G2 X143.684 Y-5.034 Z0.000 I-3.909 J-8.060 K0.000
G2 X145.107 Y-7.350 Z0.000 I-1.508 J-2.521 K0.000
G1 X145.107 Y-83.203 Z0.000
G2 X142.198 Y-86.278 Z0.000 I-3.088 J0.008 K0.000
G1 X99.937 Y-86.288 Z0.000
G3 X97.966 Y-88.259 Z0.000 I-0.047 J-1.924 K0.000
G1 X97.966 Y-97.947 Z0.000
G2 X95.056 Y-101.000 Z0.000 I-3.088 J0.030 K0.000
G1 X36.351 Y-101.010 Z0.000
G2 X23.131 Y-108.657 Z0.000 I-6728.164 J11616.000 K0.000
G2 X20.142 Y-107.841 Z0.000 I-1.058 J2.008 K0.000
G2 X6.538 Y-84.665 Z0.000 I8292.138 J4882.792 K0.000
G2 X4.247 Y-79.500 Z0.000 I39.520 J20.623 K0.000
G2 X1.538 Y-70.422 Z0.000 I79.252 J28.591 K0.000
G1 X0.502 Y-65.159 Z0.000
G2 X-0.261 Y-59.206 Z0.000 I2576.949 J333.641 K0.000
G2 X-0.583 Y-53.549 Z0.000 I2042.490 J118.748 K0.000
G2 X3.073 Y-49.678 Z0.000 I3.765 J0.106 K0.000
G1 X26.475 Y-49.673 Z0.000
G3 X27.159 Y-48.989 Z0.000 I0.050 J0.633 K0.000
G1 X27.159 Y-2.749 Z0.000
G2 X30.828 Y0.581 Z0.000 I3.826 J-0.530 K0.000
G1 X85.313 Y0.585 Z0.000
G2 X122.470 Y-0.869 Z0.000 I1.773 J-430.293 K0.000
G2 X136.774 Y-2.761 Z0.000 I-11.189 J-139.612 K0.000
G2 X141.380 Y-3.948 Z0.000 I-6.550 J-34.939 K0.000
G2 X142.662 Y-4.452 Z0.000 I-2.627 J-8.564 K0.000
G1 X142.662 Y-4.452 Z-0.250
G2 X143.684 Y-5.034 Z-0.250 I-3.909 J-8.060 K0.000
G2 X145.107 Y-7.350 Z-0.250 I-1.508 J-2.521 K0.000
G1 X145.107 Y-83.203 Z-0.250
G2 X142.198 Y-86.278 Z-0.250 I-3.088 J0.008 K0.000
G1 X99.937 Y-86.288 Z-0.250
G3 X97.966 Y-88.259 Z-0.250 I-0.047 J-1.924 K0.000
G1 X97.966 Y-97.947 Z-0.250
G2 X95.056 Y-101.000 Z-0.250 I-3.088 J0.030 K0.000
G1 X36.351 Y-101.010 Z-0.250
G2 X23.131 Y-108.657 Z-0.250 I-6728.164 J11616.000 K0.000
G2 X20.142 Y-107.841 Z-0.250 I-1.058 J2.008 K0.000
G2 X6.538 Y-84.665 Z-0.250 I8292.138 J4882.792 K0.000
G2 X4.247 Y-79.500 Z-0.250 I39.520 J20.623 K0.000
G2 X1.538 Y-70.422 Z-0.250 I79.252 J28.591 K0.000
G1 X0.502 Y-65.159 Z-0.250
G2 X-0.261 Y-59.206 Z-0.250 I2576.949 J333.641 K0.000
G2 X-0.583 Y-53.549 Z-0.250 I2042.490 J118.748 K0.000
G2 X3.073 Y-49.678 Z-0.250 I3.765 J0.106 K0.000
G1 X26.475 Y-49.673 Z-0.250
G3 X27.159 Y-48.989 Z-0.250 I0.050 J0.633 K0.000
G1 X27.159 Y-2.749 Z-0.250
G2 X30.828 Y0.581 Z-0.250 I3.826 J-0.530 K0.000
G1 X85.313 Y0.585 Z-0.250
G2 X122.470 Y-0.869 Z-0.250 I1.773 J-430.293 K0.000
G2 X136.774 Y-2.761 Z-0.250 I-11.189 J-139.612 K0.000
G2 X141.380 Y-3.948 Z-0.250 I-6.550 J-34.939 K0.000
G2 X142.662 Y-4.452 Z-0.250 I-2.627 J-8.564 K0.000
G1 X142.662 Y-4.452 Z-0.500
G2 X143.684 Y-5.034 Z-0.500 I-3.909 J-8.060 K0.000
G2 X145.107 Y-7.350 Z-0.500 I-1.508 J-2.521 K0.000
G1 X145.107 Y-83.203 Z-0.500
G2 X142.198 Y-86.278 Z-0.500 I-3.088 J0.008 K0.000
G1 X99.937 Y-86.288 Z-0.500
G3 X97.966 Y-88.259 Z-0.500 I-0.047 J-1.924 K0.000
G1 X97.966 Y-97.947 Z-0.500
G2 X95.056 Y-101.000 Z-0.500 I-3.088 J0.030 K0.000
G1 X36.351 Y-101.010 Z-0.500
G2 X23.131 Y-108.657 Z-0.500 I-6728.164 J11616.000 K0.000
G2 X20.142 Y-107.841 Z-0.500 I-1.058 J2.008 K0.000
G2 X6.538 Y-84.665 Z-0.500 I8292.138 J4882.792 K0.000
G2 X4.247 Y-79.500 Z-0.500 I39.520 J20.623 K0.000
G2 X1.538 Y-70.422 Z-0.500 I79.252 J28.591 K0.000
G1 X0.502 Y-65.159 Z-0.500
G2 X-0.261 Y-59.206 Z-0.500 I2576.949 J333.641 K0.000
G2 X-0.583 Y-53.549 Z-0.500 I2042.490 J118.748 K0.000
G2 X3.073 Y-49.678 Z-0.500 I3.765 J0.106 K0.000
G1 X26.475 Y-49.673 Z-0.500
G3 X27.159 Y-48.989 Z-0.500 I0.050 J0.633 K0.000
G1 X27.159 Y-2.749 Z-0.500
G2 X30.828 Y0.581 Z-0.500 I3.826 J-0.530 K0.000
G1 X85.313 Y0.585 Z-0.500
G2 X122.470 Y-0.869 Z-0.500 I1.773 J-430.293 K0.000
G2 X136.774 Y-2.761 Z-0.500 I-11.189 J-139.612 K0.000
G2 X141.380 Y-3.948 Z-0.500 I-6.550 J-34.939 K0.000
G2 X142.662 Y-4.452 Z-0.500 I-2.627 J-8.564 K0.000
G1 X142.662 Y-4.452 Z-0.750
G2 X143.684 Y-5.034 Z-0.750 I-3.909 J-8.060 K0.000
G2 X145.107 Y-7.350 Z-0.750 I-1.508 J-2.521 K0.000
G1 X145.107 Y-83.203 Z-0.750
G2 X142.198 Y-86.278 Z-0.750 I-3.088 J0.008 K0.000
G1 X99.937 Y-86.288 Z-0.750
G3 X97.966 Y-88.259 Z-0.750 I-0.047 J-1.924 K0.000
G1 X97.966 Y-97.947 Z-0.750
G2 X95.056 Y-101.000 Z-0.750 I-3.088 J0.030 K0.000
G1 X36.351 Y-101.010 Z-0.750
G2 X23.131 Y-108.657 Z-0.750 I-6728.164 J11616.000 K0.000
G2 X20.142 Y-107.841 Z-0.750 I-1.058 J2.008 K0.000
G2 X6.538 Y-84.665 Z-0.750 I8292.138 J4882.792 K0.000
G2 X4.247 Y-79.500 Z-0.750 I39.520 J20.623 K0.000
G2 X1.538 Y-70.422 Z-0.750 I79.252 J28.591 K0.000
G1 X0.502 Y-65.159 Z-0.750
G2 X-0.261 Y-59.206 Z-0.750 I2576.949 J333.641 K0.000
G2 X-0.583 Y-53.549 Z-0.750 I2042.490 J118.748 K0.000
G2 X3.073 Y-49.678 Z-0.750 I3.765 J0.106 K0.000
G1 X26.475 Y-49.673 Z-0.750
G3 X27.159 Y-48.989 Z-0.750 I0.050 J0.633 K0.000
G1 X27.159 Y-2.749 Z-0.750
G2 X30.828 Y0.581 Z-0.750 I3.826 J-0.530 K0.000
G1 X85.313 Y0.585 Z-0.750
G2 X122.470 Y-0.869 Z-0.750 I1.773 J-430.293 K0.000
G2 X136.774 Y-2.761 Z-0.750 I-11.189 J-139.612 K0.000
G2 X141.380 Y-3.948 Z-0.750 I-6.550 J-34.939 K0.000
G2 X142.662 Y-4.452 Z-0.750 I-2.627 J-8.564 K0.000
G1 X142.662 Y-4.452 Z-1.000
G2 X143.684 Y-5.034 Z-1.000 I-3.909 J-8.060 K0.000
G2 X145.107 Y-7.350 Z-1.000 I-1.508 J-2.521 K0.000
G1 X145.107 Y-83.203 Z-1.000
G2 X142.198 Y-86.278 Z-1.000 I-3.088 J0.008 K0.000
G1 X99.937 Y-86.288 Z-1.000
G3 X97.966 Y-88.259 Z-1.000 I-0.047 J-1.924 K0.000
G1 X97.966 Y-97.947 Z-1.000
G2 X95.056 Y-101.000 Z-1.000 I-3.088 J0.030 K0.000
G1 X36.351 Y-101.010 Z-1.000
G2 X23.131 Y-108.657 Z-1.000 I-6728.164 J11616.000 K0.000
G2 X20.142 Y-107.841 Z-1.000 I-1.058 J2.008 K0.000
G2 X6.538 Y-84.665 Z-1.000 I8292.138 J4882.792 K0.000
G2 X4.247 Y-79.500 Z-1.000 I39.520 J20.623 K0.000
G2 X1.538 Y-70.422 Z-1.000 I79.252 J28.591 K0.000
G1 X0.502 Y-65.159 Z-1.000
G2 X-0.261 Y-59.206 Z-1.000 I2576.949 J333.641 K0.000
G2 X-0.583 Y-53.549 Z-1.000 I2042.490 J118.748 K0.000
G2 X3.073 Y-49.678 Z-1.000 I3.765 J0.106 K0.000
G1 X26.475 Y-49.673 Z-1.000
G3 X27.159 Y-48.989 Z-1.000 I0.050 J0.633 K0.000
G1 X27.159 Y-2.749 Z-1.000
G2 X30.828 Y0.581 Z-1.000 I3.826 J-0.530 K0.000
G1 X85.313 Y0.585 Z-1.000
G2 X122.470 Y-0.869 Z-1.000 I1.773 J-430.293 K0.000
G2 X136.774 Y-2.761 Z-1.000 I-11.189 J-139.612 K0.000
G2 X141.380 Y-3.948 Z-1.000 I-6.550 J-34.939 K0.000
G2 X142.662 Y-4.452 Z-1.000 I-2.627 J-8.564 K0.000
G1 X142.662 Y-4.452 Z-1.250
G2 X143.684 Y-5.034 Z-1.250 I-3.909 J-8.060 K0.000
G2 X145.107 Y-7.350 Z-1.250 I-1.508 J-2.521 K0.000
G1 X145.107 Y-83.203 Z-1.250
G2 X142.198 Y-86.278 Z-1.250 I-3.088 J0.008 K0.000
G1 X99.937 Y-86.288 Z-1.250
G3 X97.966 Y-88.259 Z-1.250 I-0.047 J-1.924 K0.000
G1 X97.966 Y-97.947 Z-1.250
G2 X95.056 Y-101.000 Z-1.250 I-3.088 J0.030 K0.000
G1 X36.351 Y-101.010 Z-1.250
G2 X23.131 Y-108.657 Z-1.250 I-6728.164 J11616.000 K0.000
G2 X20.142 Y-107.841 Z-1.250 I-1.058 J2.008 K0.000
G2 X6.538 Y-84.665 Z-1.250 I8292.138 J4882.792 K0.000
G2 X4.247 Y-79.500 Z-1.250 I39.520 J20.623 K0.000
G2 X1.538 Y-70.422 Z-1.250 I79.252 J28.591 K0.000
G1 X0.502 Y-65.159 Z-1.250
G2 X-0.261 Y-59.206 Z-1.250 I2576.949 J333.641 K0.000
G2 X-0.583 Y-53.549 Z-1.250 I2042.490 J118.748 K0.000
G2 X3.073 Y-49.678 Z-1.250 I3.765 J0.106 K0.000
G1 X26.475 Y-49.673 Z-1.250
G3 X27.159 Y-48.989 Z-1.250 I0.050 J0.633 K0.000
G1 X27.159 Y-2.749 Z-1.250
G2 X30.828 Y0.581 Z-1.250 I3.826 J-0.530 K0.000
G1 X85.313 Y0.585 Z-1.250
G2 X122.470 Y-0.869 Z-1.250 I1.773 J-430.293 K0.000
G2 X136.774 Y-2.761 Z-1.250 I-11.189 J-139.612 K0.000
G2 X141.380 Y-3.948 Z-1.250 I-6.550 J-34.939 K0.000
G2 X142.662 Y-4.452 Z-1.250 I-2.627 J-8.564 K0.000
G1 X142.662 Y-4.452 Z-1.500
G2 X143.684 Y-5.034 Z-1.500 I-3.909 J-8.060 K0.000
G2 X145.107 Y-7.350 Z-1.500 I-1.508 J-2.521 K0.000
G1 X145.107 Y-83.203 Z-1.500
G2 X142.198 Y-86.278 Z-1.500 I-3.088 J0.008 K0.000
G1 X99.937 Y-86.288 Z-1.500
G3 X97.966 Y-88.259 Z-1.500 I-0.047 J-1.924 K0.000
G1 X97.966 Y-97.947 Z-1.500
G2 X95.056 Y-101.000 Z-1.500 I-3.088 J0.030 K0.000
G1 X36.351 Y-101.010 Z-1.500
G2 X23.131 Y-108.657 Z-1.500 I-6728.164 J11616.000 K0.000
G2 X20.142 Y-107.841 Z-1.500 I-1.058 J2.008 K0.000
G2 X6.538 Y-84.665 Z-1.500 I8292.138 J4882.792 K0.000
G2 X4.247 Y-79.500 Z-1.500 I39.520 J20.623 K0.000
G2 X1.538 Y-70.422 Z-1.500 I79.252 J28.591 K0.000
G1 X0.502 Y-65.159 Z-1.500
G2 X-0.261 Y-59.206 Z-1.500 I2576.949 J333.641 K0.000
G2 X-0.583 Y-53.549 Z-1.500 I2042.490 J118.748 K0.000
G2 X3.073 Y-49.678 Z-1.500 I3.765 J0.106 K0.000
G1 X26.475 Y-49.673 Z-1.500
G3 X27.159 Y-48.989 Z-1.500 I0.050 J0.633 K0.000
G1 X27.159 Y-2.749 Z-1.500
G2 X30.828 Y0.581 Z-1.500 I3.826 J-0.530 K0.000
G1 X85.313 Y0.585 Z-1.500
G2 X122.470 Y-0.869 Z-1.500 I1.773 J-430.293 K0.000
G2 X136.774 Y-2.761 Z-1.500 I-11.189 J-139.612 K0.000
G2 X141.380 Y-3.948 Z-1.500 I-6.550 J-34.939 K0.000
G2 X142.662 Y-4.452 Z-1.500 I-2.627 J-8.564 K0.000
G1 X142.662 Y-4.452 Z-1.750
G2 X143.684 Y-5.034 Z-1.750 I-3.909 J-8.060 K0.000
G2 X145.107 Y-7.350 Z-1.750 I-1.508 J-2.521 K0.000
G1 X145.107 Y-83.203 Z-1.750
G2 X142.198 Y-86.278 Z-1.750 I-3.088 J0.008 K0.000
G1 X99.937 Y-86.288 Z-1.750
G3 X97.966 Y-88.259 Z-1.750 I-0.047 J-1.924 K0.000
G1 X97.966 Y-97.947 Z-1.750
G2 X95.056 Y-101.000 Z-1.750 I-3.088 J0.030 K0.000
G1 X36.351 Y-101.010 Z-1.750
G2 X23.131 Y-108.657 Z-1.750 I-6728.164 J11616.000 K0.000
G2 X20.142 Y-107.841 Z-1.750 I-1.058 J2.008 K0.000
G2 X6.538 Y-84.665 Z-1.750 I8292.138 J4882.792 K0.000
G2 X4.247 Y-79.500 Z-1.750 I39.520 J20.623 K0.000
G2 X1.538 Y-70.422 Z-1.750 I79.252 J28.591 K0.000
G1 X0.502 Y-65.159 Z-1.750
G2 X-0.261 Y-59.206 Z-1.750 I2576.949 J333.641 K0.000
G2 X-0.583 Y-53.549 Z-1.750 I2042.490 J118.748 K0.000
G2 X3.073 Y-49.678 Z-1.750 I3.765 J0.106 K0.000
G1 X26.475 Y-49.673 Z-1.750
G3 X27.159 Y-48.989 Z-1.750 I0.050 J0.633 K0.000
G1 X27.159 Y-2.749 Z-1.750
G2 X30.828 Y0.581 Z-1.750 I3.826 J-0.530 K0.000
G1 X85.313 Y0.585 Z-1.750
G2 X122.470 Y-0.869 Z-1.750 I1.773 J-430.293 K0.000
G2 X136.774 Y-2.761 Z-1.750 I-11.189 J-139.612 K0.000
G2 X141.380 Y-3.948 Z-1.750 I-6.550 J-34.939 K0.000
G2 X142.662 Y-4.452 Z-1.750 I-2.627 J-8.564 K0.000
G1 X142.662 Y-4.452 Z-2.000
G2 X143.684 Y-5.034 Z-2.000 I-3.909 J-8.060 K0.000
G2 X145.107 Y-7.350 Z-2.000 I-1.508 J-2.521 K0.000
G1 X145.107 Y-83.203 Z-2.000
G2 X142.198 Y-86.278 Z-2.000 I-3.088 J0.008 K0.000
G1 X99.937 Y-86.288 Z-2.000
G3 X97.966 Y-88.259 Z-2.000 I-0.047 J-1.924 K0.000
G1 X97.966 Y-97.947 Z-2.000
G2 X95.056 Y-101.000 Z-2.000 I-3.088 J0.030 K0.000
G1 X36.351 Y-101.010 Z-2.000
G2 X23.131 Y-108.657 Z-2.000 I-6728.164 J11616.000 K0.000
G2 X20.142 Y-107.841 Z-2.000 I-1.058 J2.008 K0.000
G2 X6.538 Y-84.665 Z-2.000 I8292.138 J4882.792 K0.000
G2 X4.247 Y-79.500 Z-2.000 I39.520 J20.623 K0.000
G2 X1.538 Y-70.422 Z-2.000 I79.252 J28.591 K0.000
G1 X0.502 Y-65.159 Z-2.000
G2 X-0.261 Y-59.206 Z-2.000 I2576.949 J333.641 K0.000
G2 X-0.583 Y-53.549 Z-2.000 I2042.490 J118.748 K0.000
G2 X3.073 Y-49.678 Z-2.000 I3.765 J0.106 K0.000
G1 X26.475 Y-49.673 Z-2.000
G3 X27.159 Y-48.989 Z-2.000 I0.050 J0.633 K0.000
G1 X27.159 Y-2.749 Z-2.000
G2 X30.828 Y0.581 Z-2.000 I3.826 J-0.530 K0.000
G1 X85.313 Y0.585 Z-2.000
G2 X122.470 Y-0.869 Z-2.000 I1.773 J-430.293 K0.000
G2 X136.774 Y-2.761 Z-2.000 I-11.189 J-139.612 K0.000
G2 X141.380 Y-3.948 Z-2.000 I-6.550 J-34.939 K0.000
G2 X142.662 Y-4.452 Z-2.000 I-2.627 J-8.564 K0.000
G1 X142.662 Y-4.452 Z-2.200
G2 X143.684 Y-5.034 Z-2.200 I-3.909 J-8.060 K0.000
G2 X145.107 Y-7.350 Z-2.200 I-1.508 J-2.521 K0.000
G1 X145.107 Y-83.203 Z-2.200
G2 X142.198 Y-86.278 Z-2.200 I-3.088 J0.008 K0.000
G1 X99.937 Y-86.288 Z-2.200
G3 X97.966 Y-88.259 Z-2.200 I-0.047 J-1.924 K0.000
G1 X97.966 Y-97.947 Z-2.200
G2 X95.056 Y-101.000 Z-2.200 I-3.088 J0.030 K0.000
G1 X36.351 Y-101.010 Z-2.200
G2 X23.131 Y-108.657 Z-2.200 I-6728.164 J11616.000 K0.000
G2 X20.142 Y-107.841 Z-2.200 I-1.058 J2.008 K0.000
G2 X6.538 Y-84.665 Z-2.200 I8292.138 J4882.792 K0.000
G2 X4.247 Y-79.500 Z-2.200 I39.520 J20.623 K0.000
G2 X1.538 Y-70.422 Z-2.200 I79.252 J28.591 K0.000
G1 X0.502 Y-65.159 Z-2.200
G2 X-0.261 Y-59.206 Z-2.200 I2576.949 J333.641 K0.000
G2 X-0.583 Y-53.549 Z-2.200 I2042.490 J118.748 K0.000
G2 X3.073 Y-49.678 Z-2.200 I3.765 J0.106 K0.000
G1 X26.475 Y-49.673 Z-2.200
G3 X27.159 Y-48.989 Z-2.200 I0.050 J0.633 K0.000
G1 X27.159 Y-2.749 Z-2.200
G2 X30.828 Y0.581 Z-2.200 I3.826 J-0.530 K0.000
G1 X85.313 Y0.585 Z-2.200
G2 X122.470 Y-0.869 Z-2.200 I1.773 J-430.293 K0.000
G2 X136.774 Y-2.761 Z-2.200 I-11.189 J-139.612 K0.000
G2 X141.380 Y-3.948 Z-2.200 I-6.550 J-34.939 K0.000
G2 X142.662 Y-4.452 Z-2.200 I-2.627 J-8.564 K0.000
G0 Z5.000
G0 Z5.000
(Finish operation: Profile002)
(Begin postamble)
M5
G17 G90
M2
